**kern	**dynam	**kern	**dynam	**kern	**dynam	**kern	**dynam	**mxhm
*part4	*part4	*part3	*part3	*part2	*part2	*part1	*part1	*part1
*staff4	*	*staff3	*	*staff2	*	*staff1	*	*
*I"Violoncello.	*	*I"Viola.	*	*I"Violino II.	*	*I"Violino I.	*	*
*clefF4	*	*clefC3	*	*clefG2	*	*clefG2	*	*
*k[f#]	*	*k[f#]	*	*k[f#]	*	*k[f#]	*	*
*G:	*	*G:	*	*G:	*	*G:	*	*
*M3/4	*	*M3/4	*	*M3/4	*	*M3/4	*	*
!	!	!	!LO:DY:a	!	!LO:DY:a	!LO:TX:a:B:t=Adagio ma non troppo.	!	!
(4GG	p	(4G	p p	(4G	p	(4G	.	I
=1	=1	=1	=1	=1	=1	=1	=1	=1
4.FF#	<	4.F#	<	4.F#	<	4.F#	<	V6
8FFXL	.	8FXL	.	8FXL	.	8FXL	.	V2/IV
8EE	.	8E)	.	8E	.	8E	.	IV6
8AAAJ	[[	8EJ	[[	8AJ)	[[	8cJ)	[[	ii
=2	=2	=2	=2	=2	=2	=2	=2	=2
8BBBL	p	4D	p	(4G	p	(4B	p	I6
8CC	.	.	.	.	.	.	.	.
8DDJ)	.	8D	.	8F#)	.	8A)	.	V
8r	.	8r	.	8r	.	8r	.	.
(8DL	.	4D	.	(4B	.	(4g	.	I
8GGJ	.	.	.	.	.	.	.	.
=3	=3	=3	=3	=3	=3	=3	=3	=3
4.AA	<	4.D	<	4.c	<	4.f#	<	V43
8BBL	.	(8DL	.	8G#L	.	8fXL	.	#viio65/ii
8C	.	8E	.	8A	.	8e	.	ii6
8DJ)	[[	8DJ)	[[	8AJ) 8c	[[	8f#J)	[[	V7
=4	=4	=4	=4	=4	=4	=4	=4	=4
!	!	!	!LO:DY:a	!	!	!	!	!
(4D	p	[4D	p p	(4A 4c	.	(4f#	p	.
8GG)	.	8D]	.	8GX) 8B	.	8g)	.	I\\
8r	.	8r	.	8r	.	8r	.	.
!LO:TX:b:i:t=cresc.	!	!LO:TX:b:i:t=cresc.	!	!LO:TX:b:i:t=cresc.	!	!LO:TX:b:i:t=cresc.	!	!
8r	.	8r	.	8r	.	8r	.	.
8FF#	.	8D	.	8A	.	8a	.	V6
=5	=5	=5	=5	=5	=5	=5	=5	=5
(4FF#	.	[4D	.	(4A	.	(4a	.	.
8EE)	.	8D]	.	8G)	.	8b)	.	vi7
8r	.	8r	.	8r	.	8r	.	.
8r	.	8r	.	8r	.	8r	.	.
8EE	.	8AA 8E	.	8G	.	8cc#	.	V43/V
=6	=6	=6	=6	=6	=6	=6	=6	=6
!	!LO:DY:a	!	!LO:DY:a	!	!	!	!	!
(4EE	f f	4AA 4E	f	4G	.	[2cc#	f	V7/V
4AAA)	sf	[4e	sf	[4g	sf	.	.	.
(8AAL	>	(8eL]	>	(8.gL]	>	(8cc#L]	>	.
8DDJ)	]]	16c#L	.	.	.	16eeL	.	V(9+#74)
.	.	16dJJ)	]]	16f#Jk)	]]	16ddJJ)	]]	V
=7	=7	=7	=7	=7	=7	=7	=7	=7
8DD	p	4d	p	4f#	p	4dd	p	V\\
*clefC4	*	*	*	*	*	*	*	*
(8d'L	.	.	.	.	.	.	.	.
8d'	.	4r	.	4r	.	4r	.	.
8d')	.	.	.	.	.	.	.	.
(8d	.	4r	.	4r	.	4r	.	.
8d#XJ)	.	.	.	.	.	.	.	.
=8	=8	=8	=8	=8	=8	=8	=8	=8
(8eL	.	2.r	.	8r	.	2.r	.	V2/V
16BL	.	.	.	(8G#L	.	.	.	.
16dJJ	.	.	.	.	.	.	.	.
8cL	.	.	.	8A	.	.	.	.
16G#L	.	.	.	8B	.	.	.	.
16BJJ	.	.	.	.	.	.	.	.
8AL	.	.	.	8c	.	.	.	.
8GXJ)	.	.	.	8c#J)	.	.	.	.
=9	=9	=9	=9	=9	=9	=9	=9	=9
(8GL	.	2.r	.	(8d'L	.	2.r	.	V/vi
8F#	.	.	.	8d'	.	.	.	.
8E	.	.	.	8d'	.	.	.	.
8D	.	.	.	8d')	.	.	.	.
8C	.	.	.	(8d	.	.	.	.
8BBJ)	.	.	.	8d#XJ	.	.	.	.
=10	=10	=10	=10	=10	=10	=10	=10	=10
(8CL	.	8r	.	8eL	.	2.r	.	#viio/V
8GG#	.	(8D'L	.	16BL	.	.	.	.
.	.	.	.	16dJJ	.	.	.	.
8AA	.	8D'	.	8cL	.	.	.	.
8BB	.	8D')	.	16G#L	.	.	.	.
.	.	.	.	16BJJ	.	.	.	.
8C	.	8E	.	8AL	.	.	.	.
8C#J)	.	8EJ	.	8GXJ)	.	.	.	.
=11	=11	=11	=11	=11	=11	=11	=11	=11
!LO:TX:b:i:t=cresc.	!	!LO:TX:b:i:t=cresc.	!	!LO:TX:b:i:t=cresc.	!	!LO:TX:b:i:t=cresc.	!	!
(8C#L	.	(8EL	.	(8GL	.	8r	.	.
8D	.	8D)	.	8F#	.	(8dd'L	.	V
8CX	.	(8D'	.	8e	.	8dd'	.	V2(9)
8BBJ)	.	8D'	.	8d	.	8gg')	.	I6
8BBBL	.	8D')	.	8fX	.	(8gg	.	V65/IV
8BBBJ	.	(8DJ	.	8FXJ)	.	8gg#J	.	#viio65/ii
=12	=12	=12	=12	=12	=12	=12	=12	=12
(8CCL	.	8AAL)	.	(8E	.	8aaL	.	ii6
8CC#	.	(8E	.	4A)	.	16eeL	.	V65/V
.	.	.	.	.	.	16ggJJ	.	.
8DD	.	8D	.	.	.	8ffXL	.	v
8EE	.	8G	.	4a	.	16cc#L	.	V43/V
.	.	.	.	.	.	16eeJJ	.	.
8FFX	.	8FX	.	.	.	8ddL	.	v6
8FF#J)	.	8E-XJ)	.	8a	.	8ccXJ)	.	#viio7
=13	=13	=13	=13	=13	=13	=13	=13	=13
!LO:TX:b:i:t=dim.	!	!LO:TX:b:i:t=dim.	!	!LO:TX:b:i:t=dim.	!	!LO:TX:b:i:t=dim.	!	!
(8FF#L	.	(8E-XL	.	(8aL	.	(8ccL	.	.
8GGJ)	.	8D	.	8gJ)	.	8b	.	I[I64
8GG'L	.	8C	.	8e-X 8f#	.	8a	.	#viio43
(8GGJ	.	8BB	.	4d	.	8g	.	I6]
8AAL	.	8C	.	.	.	8f#	.	V43
8BBJ)	.	8DJ)	.	[8G	.	8fXJ)	.	V65/IV
=14	=14	=14	=14	=14	=14	=14	=14	=14
!	!	!	!LO:DY:a	!	!LO:DY:a	!	!	!
(8CL	p <	(8.EL	p p <	(8GL]	p <	(8eL	.	IV
8E	.	.	.	8g	.	16ddL	.	IV6
.	.	16GJk	.	.	.	16ccJJ)	.	.
8E-X	[ >	8AL	[ >	8f#	[ >	[8cc;	.	viio2
8D;J)	.	8F#;J)	.	8a;J)	.	8cc]	.	V\\
!	!	!	!	!	!LO:DY:a	!LO:TX:a:B:t=Allegro.	!	!
4r	]	4r	]	4r	] f	16bLL	.	.
.	.	.	.	.	.	16cc	.	.
!	!	!	!	!	!	!LO:TX:b:i:t=non ligato	!	!
.	.	.	.	.	.	16b	.	.
.	.	.	.	.	.	16aJJ	.	.
=15	=15	=15	=15	=15	=15	=15	=15	=15
*M4/4	*	*M4/4	*	*M4/4	*	*M4/4	*	*
*met(c)	*	*met(c)	*	*met(c)	*	*met(c)	*	*
!	!	!	!LO:DY:a	!	!	!	!	!
1r	.	1r	f	4r	.	16gLL	.	I
.	.	.	.	.	.	16a	.	.
.	.	.	.	.	.	16g	.	.
.	.	.	.	.	.	16f#JJ	.	.
.	.	.	.	4g	.	16eLL	.	.
.	.	.	.	.	.	16f#	.	.
.	.	.	.	.	.	16e	.	.
.	.	.	.	.	.	16dJJ	.	.
.	.	.	.	4g	.	16cLL	.	.
.	.	.	.	.	.	16d	.	.
.	.	.	.	.	.	16c	.	.
.	.	.	.	.	.	16BJJ	.	.
.	.	.	.	8gL	.	16ALL	.	.
.	.	.	.	.	.	16B	.	.
.	.	.	.	8gJ	.	16A	.	.
.	.	.	.	.	.	16GJJ	.	.
=16	=16	=16	=16	=16	=16	=16	=16	=16
!	!	!	!	!	!LO:DY:a	!	!	!
2.D	p	2.A 2.f#	p	2.cc	p p	16GLL	.	V7
.	.	.	.	.	.	16F#	.	.
.	.	.	.	.	.	16E	.	.
.	.	.	.	.	.	16F#JJ	.	.
.	.	.	.	.	.	16ALL	.	.
.	.	.	.	.	.	16d	.	.
.	.	.	.	.	.	16f#	.	.
.	.	.	.	.	.	16gJJ	.	.
.	.	.	.	.	.	16aLL	.	.
.	.	.	.	.	.	16g#	.	.
.	.	.	.	.	.	16a	.	.
.	.	.	.	.	.	16bJJ	.	.
4r	.	4r	.	4r	.	16ccLL	f	.
.	.	.	.	.	.	16dd	.	.
.	.	.	.	.	.	16cc	.	.
.	.	.	.	.	.	16bJJ	.	.
=17	=17	=17	=17	=17	=17	=17	=17	=17
!	!	!	!LO:DY:a	!	!	!	!	!
1r	.	1r	f	4r	.	16aLL	.	.
.	.	.	.	.	.	16b	.	.
.	.	.	.	.	.	16a	.	.
.	.	.	.	.	.	16gJJ	.	.
.	.	.	.	4a	.	16f#LL	.	.
.	.	.	.	.	.	16g	.	.
.	.	.	.	.	.	16f#	.	.
.	.	.	.	.	.	16eJJ	.	.
.	.	.	.	4a	.	16dLL	.	.
.	.	.	.	.	.	16e	.	.
.	.	.	.	.	.	16d	.	.
.	.	.	.	.	.	16cJJ	.	.
.	.	.	.	8aL	.	16BLL	.	.
.	.	.	.	.	.	16c	.	.
.	.	.	.	8aJ	.	16B	.	.
.	.	.	.	.	.	16AJJ	.	.
=18	=18	=18	=18	=18	=18	=18	=18	=18
!	!	!	!	!	!LO:DY:a	!	!	!
2.BB	p	2.g	p	[2dd	p p	16ALL	.	I6
.	.	.	.	.	.	16G	.	.
.	.	.	.	.	.	16F#	.	.
.	.	.	.	.	.	16GJJ	.	.
.	.	.	.	.	.	16BLL	.	.
.	.	.	.	.	.	16d	.	.
!	!	!	!	!	!	!LO:TX:b:i:t=cresc.	!	!
.	.	.	.	.	.	16g	.	.
.	.	.	.	.	.	16bJJ	.	.
!	!	!	!	!LO:TX:b:i:t=non ligato	!	!	!	!
!	!	!	!	!LO:TX:b:i:t=cresc.	!	!	!	!
.	.	.	.	16ddLL]	.	16ddLL	.	.
.	.	.	.	16cc	.	16ee	.	.
.	.	.	.	16b	.	16dd	.	.
.	.	.	.	16aJJ	.	16ccJJ	.	.
!LO:TX:b:i:t=non ligato	!	!LO:TX:b:i:t=non ligato	!	!	!	!	!	!
!LO:TX:b:i:t=cresc.	!	!LO:TX:a:i:t=cresc.	!	!	!	!	!	!
16GLL	.	16BLL	.	16gLL	.	16bLL	.	I
16F#	.	16A	.	16a	.	16cc	.	.
16G	.	16B	.	16g	.	16b	.	.
16AJJ	.	16cJJ	.	16f#JJ	.	16aJJ	.	.
=19	=19	=19	=19	=19	=19	=19	=19	=19
16BLL	.	16dLL	.	16eLL	.	16gLL	.	I6
16c	.	16e	.	16d	.	16f#	.	.
16B	.	16d	.	16e	.	16g	.	.
16AJJ	.	16cJJ	.	16f#JJ	.	16aJJ	.	.
16GLL	.	16BLL	.	16gLL	.	16bLL	.	I
16F#	.	16A	.	16a	.	16cc	.	.
16E	.	16G	.	16b	.	16dd	.	.
16DJJ	.	16F#JJ	.	16ccJJ	.	16eeJJ	.	.
16CLL	.	16ELL	.	16ddLL	.	16ff#LL	.	.
16BB	.	16D	.	16ee	.	16gg	.	.
16AA	.	16C	.	16ff#	.	16aa	.	.
16GGJJ	.	16BBJJ	.	16ggJJ	.	16bbJJ	.	.
8FF#'L	.	8AA'L	.	8aa'L	.	8ccc'L	.	viio
8GG'J	.	8G'J	.	8gg'J	.	8bb'J	.	I
=20	=20	=20	=20	=20	=20	=20	=20	=20
*M3/4	*	*M3/4	*	*M3/4	*	*M3/4	*	*
!	!	!	!	!	!	!LO:TX:a:B:t=Tempo I.	!	!
4DD'	f	4A'	f	4ff#'	f	4ddd'	f	V-V.I
4r	.	4r	.	4r	.	4r	.	.
(4DD	p	4r	.	4r	.	4r	.	.
=21	=21	=21	=21	=21	=21	=21	=21	=21
4.CC#	<	4r	.	(4A	p <	2.r	.	iio6
.	.	(8EL	<	4.G	.	.	.	.
!	!LO:DY:a	!	!	!	!	!	!	!
8CCXL	p	8E-X	.	.	.	.	.	.
8BBB	.	8D	.	.	.	.	.	.
8GGJ)	[[	8BB-XJ)	[[	8e)	[[	.	.	.
=22	=22	=22	=22	=22	=22	=22	=22	=22
!	!LO:DY:a	!	!	!	!	!	!	!
(4FF#	p p	(8AAL	.	(4d	p	4r	.	I6
.	.	8G#	.	.	.	.	.	.
8EE)	.	8A	.	8c#)	.	4r	.	V43
8r	.	8GXJ)	.	8r	.	.	.	.
8DDL	.	4D	.	[4A	.	(4f#	p	I[I
8DDJ	.	.	.	.	.	.	.	.
=23	=23	=23	=23	=23	=23	=23	=23	=23
!LO:TX:b:i:t=cresc.	!	!LO:TX:b:i:t=cresc.	!	!LO:TX:b:i:t=cresc.	!	!	!	!
8DDL	.	(4.C#	.	(8AL]	.	4e)	.	V65
8DD	.	.	.	8G	.	.	.	.
!	!	!	!	!	!	!LO:TX:b:i:t=cresc.	!	!
8DD	.	.	.	8E	.	(4aa	.	V2/IV
8DD	.	8CXL	.	8F#J	.	.	.	.
8DD	.	8BB	.	8GL	.	(4gg)	.	viio
8DDJ	.	8C#J)	.	[8eJ) [8g	.	.	.	.
=24	=24	=24	=24	=24	=24	=24	=24	=24
!	!	!	!	!	!	!LO:TX:a:B:t=Allegro.	!	!
8DDL	>	8C#	>	(8eL] 8g]	f >	(8ggL)	f >	.
[8DD	.	4D	.	8G	.	8b	.	I(64)
8DDJ]	.	.	.	8F#J)	.	8aJ)	.	I]
8r;	]	8r;	]	8r;	]	8r;	]	.
!	!	!LO:TX:b:i:t=non ligato	!	!LO:TX:b:i:t=non ligato	!	!LO:TX:b:i:t=non ligato	!	!
4r	.	16f#LL	.	16aaLL	.	16aLL	.	.
.	.	16e#X	.	16bb	.	16g#	.	.
.	.	16f#	.	16aa	.	16a	.	.
.	.	16eJJ	.	16ggJJ	.	16gXJJ	.	.
=25	=25	=25	=25	=25	=25	=25	=25	=25
*M4/4	*	*M4/4	*	*M4/4	*	*M4/4	*	*
*met(c)	*	*met(c)	*	*met(c)	*	*met(c)	*	*
!	!LO:DY:a	!	!	!	!	!	!	!
4r	f	16dLL	.	16ff#LL	.	4f#	.	I
.	.	16c#	.	16gg	.	.	.	.
.	.	16d	.	16ff#	.	.	.	.
.	.	16c#JJ	.	16eeJJ	.	.	.	.
4d	.	16BLL	.	16ddLL	.	4dd	.	vi
.	.	16c#	.	16ee	.	.	.	.
.	.	16B	.	16dd	.	.	.	.
.	.	16AJJ	.	16cc#JJ	.	.	.	.
4d	.	16GLL	.	16bLL	.	4dd	.	IV
.	.	16A	.	16cc#	.	.	.	.
.	.	16G	.	16b	.	.	.	.
.	.	16F#JJ	.	16aJJ	.	.	.	.
8dL	.	16ELL	.	16gLL	.	8ddL	.	ii7
.	.	16F#	.	16a	.	.	.	.
8dJ	.	16E	.	16g	.	8ddJ	.	.
.	.	16DJJ	.	16f#JJ	.	.	.	.
=26	=26	=26	=26	=26	=26	=26	=26	=26
!	!LO:DY:a	!	!	!	!	!	!	!
2.A	p f	16DLL	p	16f#LL	p	2.gg	p	V7
.	.	16C#	.	16e	.	.	.	.
.	.	16BB	.	16d	.	.	.	.
.	.	16C#JJ	.	16eJJ	.	.	.	.
!	!	!	!LO:DY:a	!	!	!	!	!
.	.	16ELL	f	16gLL	.	.	.	.
.	.	16A	.	16cc#	.	.	.	.
.	.	16c#	.	16ee	.	.	.	.
.	.	16dJJ	.	16ff#JJ	.	.	.	.
.	.	16eLL	.	16ggLL	.	.	.	.
.	.	16A	.	16c#	.	.	.	.
.	.	16C#	.	16e	.	.	.	.
.	.	16DJJ	.	16f#JJ	.	.	.	.
4r	.	16ELL	.	16gLL	.	4r	.	.
.	.	16F#	.	16a	.	.	.	.
.	.	16E	.	16g	.	.	.	.
.	.	16dJJ	.	16f#JJ	.	.	.	.
=27	=27	=27	=27	=27	=27	=27	=27	=27
4r	.	16c#LL	.	16eLL	.	4r	.	.
.	.	16d	.	16f#	.	.	.	.
.	.	16c#	.	16e	.	.	.	.
.	.	16BJJ	.	16dJJ	.	.	.	.
*clefF4	*	*	*	*	*	*	*	*
4A	f	16ALL	.	16c#LL	.	4ee	f	.
.	.	16B	.	16d	.	.	.	.
.	.	16A	.	16c#	.	.	.	.
.	.	16GJJ	.	16BJJ	.	.	.	.
4A	.	16F#LL	.	16ALL	.	4ee	.	.
.	.	16G	.	16B	.	.	.	.
.	.	16F#	.	16A	.	.	.	.
.	.	16EJJ	.	16GJJ	.	.	.	.
8AL	.	16DLL	.	16F#LL	.	8eeL	.	.
.	.	16D	.	16g	.	.	.	.
8AJ	.	16D	.	16f#	.	8eeJ	.	.
.	.	16C#JJ	.	16eJJ	.	.	.	.
=28	=28	=28	=28	=28	=28	=28	=28	=28
2.F#	p	16GLL	p	16eLL	p	2.aa	p	I6
.	.	16F#	.	16d	.	.	.	.
.	.	16E	.	16c#	.	.	.	.
.	.	16F#JJ	.	16dJJ	.	.	.	.
.	.	16DLL	.	16f#LL	.	.	.	.
.	.	16F#	.	16a	.	.	.	.
.	.	16A	.	16dd	.	.	.	.
.	.	16dJJ	.	16ff#JJ	.	.	.	.
.	.	16ALL	.	16aaLL	.	.	.	.
.	.	16G	.	16b	.	.	.	.
.	.	16F#	.	16a	.	.	.	.
.	.	16EJJ	.	16gJJ	.	.	.	.
16ALL	.	16DLL	.	16f#LL	.	4r	.	viio
16B	.	16D	.	16g	.	.	.	.
16A	.	16D	.	16f#	.	.	.	.
16GJJ	.	16C#JJ	.	16eJJ	.	.	.	.
=29	=29	=29	=29	=29	=29	=29	=29	=29
!LO:TX:b:i:t=cresc.	!	!LO:TX:b:i:t=cresc.	!	!LO:TX:b:i:t=cresc.	!	!	!	!
16F#LL	.	16AALL	.	16dLL	.	1r	.	I
16G	.	16AA	.	16c#	.	.	.	.
16F#	.	16BB	.	16d	.	.	.	.
16EJJ	.	16C#JJ	.	16eJJ	.	.	.	.
16DLL	.	16DLL	.	16f#LL	.	.	.	.
16C#	.	16E	.	16g	.	.	.	.
16BB	.	16F#	.	16a	.	.	.	.
16AAJJ	.	16GJJ	.	16bJJ	.	.	.	.
16GGLL	.	16ALL	.	16cc#LL	.	.	.	.
16FF#	.	16B	.	16dd	.	.	.	.
16EE	.	16c#	.	16ee	.	.	.	.
16DDJJ	.	16dJJ	.	16ff#JJ	.	.	.	.
8CC#L	.	8eL	.	8ggL	.	.	.	.
8DDJ	.	8dJ	.	8ff#J	.	.	.	.
=30	=30	=30	=30	=30	=30	=30	=30	=30
!	!	!	!LO:DY:a	!	!	!	!	!
16DLL	.	16ALL	f	16f#LL	.	2.r	.	V7/IV
16G	.	16G	.	16e	.	.	.	.
16F#	.	16A	.	16f#	.	.	.	.
16EJJ	.	16BJJ	.	16gJJ	.	.	.	.
16DLL	.	16cXLL	.	16aLL	.	.	.	.
16CX	.	16d	.	16b	.	.	.	.
16BB	.	16e	.	16ccX	.	.	.	.
16AAJJ	.	16f#JJ	.	16ddJJ	.	.	.	.
16GGLL	.	16gLL	.	16eeLL	.	.	.	.
16FF#	.	16a	.	16ff#	.	.	.	.
16EE	.	16b	.	16gg	.	.	.	.
16DDJJ	.	16ccJJ	.	16aaJJ	.	.	.	.
8DDL	.	8ddL	.	8eeL	.	16bbLL	.	.
.	.	.	.	.	.	16cccX	.	.
8DJ	.	8ccJ	.	8ff#J	.	16bb	.	.
.	.	.	.	.	.	16aaJJ	.	.
=31	=31	=31	=31	=31	=31	=31	=31	=31
!	!LO:DY:a	!	!LO:DY:a	!	!	!	!	!
4G	f f	16BBLL	f	16GLL	.	16ggLL	.	IV[IV6
.	.	16AA	.	16F#	.	16aa	.	.
.	.	16BB	.	16G	.	16gg	.	.
.	.	16CJJ	.	16AJJ	.	16ff#JJ	.	.
4GG	sf	16DLL	.	16BLL	.	16eeLL	.	vi43
.	.	16C	.	16A	.	16ff#	.	.
.	.	16D	.	16B	.	16ee	.	.
.	.	16EJJ	.	16cJJ	.	16ddJJ	.	.
4GG	.	16F#LL	.	16dLL	.	16ccLL	.	V65/IV
.	.	16E	.	16c	.	16dd	.	.
.	.	16F#	.	16d	.	16cc	.	.
.	.	16GJJ	.	16eJJ	.	16bJJ	.	.
8GGL	.	16ALL	.	16f#LL	.	16aLL	.	V64/IV]
.	.	16G	.	16e	.	16b	.	.
8GGJ	.	16A	.	16f#	.	16a	.	.
.	.	16BJJ	.	16gJJ	.	16gJJ	.	.
=32	=32	=32	=32	=32	=32	=32	=32	=32
!	!LO:DY:a	!	!	!	!	!	!	!
2.C	p f	16ELL	p	16aLL	p	16gLL	p	V2/IV
.	.	16D	.	16a	.	16f#	.	.
.	.	16C#	.	16a	.	16e	.	.
.	.	16DJJ	.	16aJJ	.	16f#JJ	.	.
!	!	!	!	!	!LO:DY:a	!	!	!
.	.	16F#LL	.	16aLL	f f	16aLL	.	.
.	.	16A	.	16d	.	16dd	.	.
.	.	16d	.	16d	.	16ff#	.	.
.	.	16eJJ	.	16dJJ	.	16ggJJ	.	.
.	.	16f#LL	.	16dLL	.	16aaLL	.	.
.	.	16e	.	16d	.	16gg	.	.
.	.	16f#	.	16d	.	16aa	.	.
.	.	16gJJ	.	16dJJ	.	16bbJJ	.	.
4r	.	16aLL	.	16dLL	.	16cccLL	.	.
.	.	16b	.	16E	.	16ddd	.	.
.	.	16a	.	16F#	.	16ccc	.	.
.	.	16gJJ	.	16GJJ	.	16bbJJ	.	.
=33	=33	=33	=33	=33	=33	=33	=33	=33
4r	.	16f#LL	.	16ALL	.	16aaLL	.	V43/IV
.	.	16g	.	16G	.	16bb	.	.
.	.	16f#	.	16A	.	16aa	.	.
.	.	16eJJ	.	16BJJ	.	16ggJJ	.	.
4AA	f	16dLL	.	16cLL	.	16ff#LL	.	.
.	.	16e	.	16B	.	16gg	.	.
.	.	16d	.	16c	.	16ff#	.	.
.	.	16cJJ	.	16dJJ	.	16eeJJ	.	.
4AA	.	16BLL	.	16eLL	.	16ddLL	.	.
.	.	16c	.	16d	.	16ee	.	.
.	.	16B	.	16e	.	16dd	.	.
.	.	16AJJ	.	16f#JJ	.	16ccJJ	.	.
8AAL	.	16GLL	.	16gLL	.	16bLL	.	.
.	.	16A	.	16f#	.	16cc	.	.
8AAJ	.	16G	.	16g	.	16b	.	.
.	.	16F#JJ	.	16aJJ	.	16aJJ	.	.
=34	=34	=34	=34	=34	=34	=34	=34	=34
!	!LO:DY:a	!	!	!	!LO:DY:a	!	!	!
2D	p p	16cLL	.	16eLL	p p	16aLL	.	V(64)
.	.	16B	.	16d	.	16g	.	.
.	.	16A	.	16c	.	16f#	.	.
.	.	16BJJ	.	16dJJ	.	16gJJ	.	.
.	.	16dLL	.	16gLL	.	16bLL	.	.
.	.	16B	.	16d	.	16dd	.	.
.	.	16A	.	16c	.	16ff#	.	.
.	.	16GJJ	.	16BJJ	.	16ggJJ	.	.
!LO:TX:b:i:t=cresc.	!	!LO:TX:b:i:t=cresc.	!	!LO:TX:b:i:t=cresc.	!	!LO:TX:b:i:t=cresc.	!	!
4D	.	16cLL	.	16eLL	.	16aLL	.	.
.	.	16B	.	16d	.	16g	.	.
.	.	16A	.	16c	.	16f#	.	.
.	.	16BJJ	.	16dJJ	.	16gJJ	.	.
8DL	.	16dLL	.	16fXLL	.	16bLL	.	#viio43/ii
.	.	16B	.	16d	.	16dd	.	.
8DJ	.	16A	.	16c	.	16ee	.	.
.	.	16G#JJ	.	16BJJ	.	16ffXJJ	.	.
=35	=35	=35	=35	=35	=35	=35	=35	=35
2D	.	16DLL	.	16fXLL	.	16aLL	.	.
.	.	16FX	.	16B	.	16g#	.	.
.	.	16B	.	16d	.	16f##X	.	.
.	.	16BJJ	.	16dJJ	.	16g#JJ	.	.
.	.	16dLL	.	16fLL	.	16bLL	.	.
.	.	16B	.	16d	.	16dd	.	.
.	.	16A	.	16c	.	16ee	.	.
.	.	16G#JJ	.	16BJJ	.	16ffXJJ	.	.
4C	.	16ELL	.	16ALL	.	16eeLL	.	ii6
.	.	16E	.	16e	.	16ff#	.	.
.	.	16E	.	16e	.	16gg#	.	.
.	.	16EJJ	.	16eJJ	.	16aaJJ	.	.
8BBL	.	16dLL	.	16eLL	.	16bbLL	.	.
.	.	16d	.	16e	.	16ccc	.	.
8AAJ	.	16c	.	16e	.	16ddd	.	ii
.	.	16cJJ	.	16eJJ	.	16eeeJJ	.	.
=36	=36	=36	=36	=36	=36	=36	=36	=36
4BB	.	16GXLL	.	16gLL	.	8ddd'L	.	I6
.	.	16G	.	16d	.	.	.	.
.	.	16G	.	16d	.	8eee'	.	.
.	.	16GJJ	.	16dJJ	.	.	.	.
8AAL	.	16dLL	.	16cLL	.	8fff#'	.	V43
.	.	16d	.	16c	.	.	.	.
8GGJ	.	16D	.	16B	.	8gggX'J	.	I
.	.	16DJJ	.	16BJJ	.	.	.	.
4D	.	16GLL	.	16B-XLL	.	16eeLL	.	V(b64)
.	.	16G	.	16B-	.	16dd	.	.
.	.	16G	.	16B	.	16cc#	.	V(64)
.	.	16GJJ	.	16BJJ	.	16ddJJ	.	.
4DD	.	16F#LL	.	16cLL	.	16ff#LL	.	V7
.	.	16F#	.	16c	.	16aa	.	.
.	.	16A	.	16c	.	16cccX	.	.
.	.	16AJJ	.	16cJJ	.	16ff#JJ	.	.
=37	=37	=37	=37	=37	=37	=37	=37	=37
!	!	!	!LO:DY:a	!	!	!	!	!
8GG'L	f	8G'L	f f	8B	.	8bb'L	f	I\\
8FF#'	.	8D'	.	8r	.	(16aa#XL	.	V+6
.	.	.	.	.	.	16cccJJ	.	.
8GG'	.	8D'	.	4r	.	8bb'L)	.	I
8AA'J	.	8C'J	.	.	.	(16ff#L	.	viio6
.	.	.	.	.	.	16aaJJ	.	.
8BBL	>	8DL	>	2r	>]	8gg'L)	>	I6
8BB	.	8G	.	.	.	(16ddL	.	V64/IV
.	.	.	.	.	.	16ffXJJ	.	.
8C	.	8G	.	.	.	8ee'L)	.	IV
8DJ	]]	8GJ	]]	.	.	(16bL	.	V64/IV
.	.	.	.	.	.	16ddJJ	]]	.
=38	=38	=38	=38	=38	=38	=38	=38	=38
4E	p	8G	p	8E	p	4cc')	p	#viio(+4)/ii
.	.	8B'L	.	(16G#LL	.	.	.	.
.	.	.	.	16BJJ	.	.	.	.
4r	.	8c'	.	8A'L)	.	8r	.	ii6
.	.	8c#'J	.	(16EL	.	4r	.	V
.	.	.	.	16GXJJ	.	.	.	.
2r	.	8dL	.	8F#')	.	.	.	.
.	.	8e	.	8g'L	.	(16cc#LL	.	#viio6/V
.	.	.	.	.	.	16eeJJ	.	.
.	.	8f#	.	8a'J	.	8dd'L)	.	V6
.	.	8dJ	.	(16f#LL	.	(16aL	.	V7
.	.	.	.	16aJJ)	.	16ccXJJ)	.	.
=39	=39	=39	=39	=39	=39	=39	=39	=39
!	!	!	!LO:DY:a	!	!	!	!	!
8GG'L	f	8G'L	f f	8g	.	8b'L	f	I\\
8FF#'	.	8D'	.	8r	.	(16aa#XL	.	V+6
.	.	.	.	.	.	16cccJ	.	.
8GG'J	.	8D'J	.	8r	.	8bb'J)	.	I
!	!	!LO:TX:b:i:t=dim.	!	!	!	!LO:TX:a:i:t=dim.	!	!
8r	.	8A'L	.	(16ff#LL	>	8c'L	.	viio6
.	.	.	.	16aaJJ	.	.	.	.
8r	.	8B'J	.	8gg')	.	8d'J	.	I6
!LO:TX:b:i:t=dim.	!	!	!	!LO:TX:b:i:t=dim.	!	!	!	!
8BB'L	.	8r	.	8GL	]	(16ddLL	>	V65/IV
.	.	.	.	.	.	16ffXJJ	.	.
8C'J	.	8r	.	8GJ	.	8ee')	.	IV
8r	.	8d'	.	(16bLL	>	8g	]	V64/IV
.	.	.	.	16ddJJ	]]	.	.	.
=40	=40	=40	=40	=40	=40	=40	=40	=40
!	!	!	!	!	!LO:DY:a	!	!	!
8r	.	8e'	p	8cc')	p p	8g	.	IV6
8BB'L	.	(16G#LL	.	8r	.	8r	.	#viio6/ii
.	.	16BJJ	.	.	.	.	.	.
8C'J	.	8A')	.	8r	.	4r	.	#viio/V
!	!	!	!	!LO:TX:b:i:t=cresc.	!	!	!	!
8C#'L	.	8A'L	.	(16eLL	.	.	.	.
.	.	.	.	16gJJ	.	.	.	.
8D'J	.	8A'J	.	8f#')	.	8r	.	V
!	!	!LO:TX:b:i:t=cresc.	!	!	!	!LO:TX:b:i:t=cresc.	!	!
8r	.	8e'L	.	8g'L	.	(16cc#LL	.	#viio6/V
.	.	.	.	.	.	16eeJJ	.	.
!LO:TX:b:i:t=cresc.	!	!	!	!	!	!	!	!
8r	.	8f#'J	.	8a'J	.	8dd'L)	.	V65
8F#	.	16ALL	.	8d	.	8dd'J	.	.
.	.	16cJJ	.	.	.	.	.	.
=41	=41	=41	=41	=41	=41	=41	=41	=41
!	!LO:DY:a	!	!	!	!	!	!	!
(4G	f f	(16BLL	.	4d	f	4bb	f	I\\
.	.	16A	.	.	.	.	.	.
.	.	16GX	.	.	.	.	.	.
.	.	16F#JJ	.	.	.	.	.	.
4r	.	16GLL	.	4r	.	4r	.	I
.	.	16A	.	.	.	.	.	.
.	.	16B	.	.	.	.	.	.
.	.	16cJJ)	.	.	.	.	.	.
.	.	.	.	16qqee/LL	.	.	.	.
.	.	.	.	16qqdd/	.	.	.	.
.	.	.	.	16qqcc#/JJ	.	.	.	.
16FF#LL	.	8d'L	.	4dd	.	(16aaLL	.	V6
16EE	.	.	.	.	.	16gg	.	.
16DD	.	(16dL	.	.	.	16ff#	.	.
16CC#JJ	.	16eJJ	.	.	.	16eeJJ	.	.
16DDLL	.	16dLL	.	4r	.	16ff#LL	.	.
16EE	.	16c	.	.	.	16gg	.	.
16FF#	.	16B	.	.	.	16aa	.	.
16GGJJ)	.	16AJJ)	.	.	.	16bbJJ)	.	.
=42	=42	=42	=42	=42	=42	=42	=42	=42
.	.	.	.	16qqe/LL	.	.	.	.
.	.	.	.	16qqd/	.	.	.	.
.	.	.	.	16qqc#/JJ	.	.	.	.
4GG	.	(16BLL	.	4d	.	4bb	.	I
.	.	16A	.	.	.	.	.	.
.	.	16G	.	.	.	.	.	.
.	.	16F#JJ	.	.	.	.	.	.
4r	.	16GLL	.	4r	.	4r	.	.
.	.	16A	.	.	.	.	.	.
.	.	16B	.	.	.	.	.	.
.	.	16cJJ)	.	.	.	.	.	.
.	.	.	.	16qqee/LL	.	.	.	.
.	.	.	.	16qqdd/	.	.	.	.
.	.	.	.	16qqcc#/JJ	.	.	.	.
(16FF#LL	.	8d'L	.	4dd	.	(16aaLL	.	V6
16EE	.	.	.	.	.	16gg	.	.
16DD	.	(16dL	.	.	.	16ff#	.	.
16CC#JJ	.	16eJJ	.	.	.	16eeJJ	.	.
16DDLL	.	16dLL	.	4r	.	16ff#LL	.	.
16EE	.	16c	.	.	.	16gg	.	.
16FF#	.	16B	.	.	.	16aa	.	.
16GGJJ)	.	16AJJ)	.	.	.	16bbJJ)	.	.
=43	=43	=43	=43	=43	=43	=43	=43	=43
!	!LO:DY:a	!	!	!	!	!	!	!
8GG'L	sf sf	8B'L	.	8b'L	sf	8bb'L	sf	I
(16BBL	.	(16BL	.	(16bL	.	(16ggL	.	.
16CJJ	.	16cJJ	.	16ccJJ	.	16ff#JJ	.	.
16BBLL	.	16BLL	.	16bLL	.	16ggLL	.	.
16AA	.	16A	.	16a	.	16aa	.	.
16GG	.	16G	.	16g	.	16bb	.	.
16FF#JJ)	.	16F#JJ)	.	16f#JJ)	.	16cccJJ)	.	.
8GG'L	sf	8G'L	sf	8g'L	sf	8bb'L	sf	.
(16GGL	.	(16GL	.	(16gL	.	(16eeL	.	vi6
16AAJJ	.	16AJJ	.	16aJJ	.	16dd#XJJ	.	.
16GGLL	.	16GLL	.	16gLL	.	16eeLL	.	.
16FF#	.	16F#	.	16f#	.	16ff#	.	.
16EE	.	16E	.	16e	.	16gg	.	.
16DD#XJJ)	.	16D#XJJ)	.	16d#XJJ)	.	16aaJJ)	.	.
=44	=44	=44	=44	=44	=44	=44	=44	=44
!	!LO:DY:a	!	!	!	!	!	!	!
8EE'L	sf sf	8E'L	.	8e'L	sf	8gg'L	sf	vi
(16EEL	.	(16EL	.	(16eL	.	(16cc#L	.	viio6/V
16FF#JJ	.	16F#JJ	.	16f#JJ	.	16bJJ	.	.
16EELL	.	16ELL	.	16eLL	.	16cc#LL	.	.
16DD	.	16D	.	16d	.	16dd	.	.
16CC#	.	16C#	.	16c#	.	16ee	.	.
16BBBJJ)	.	16BBJJ)	.	16BJJ)	.	16ff#JJ)	.	.
8AAA'L	.	8AA'L	.	8A'L	.	8gg'L	.	V7/V
(16AAL	.	(16AL	.	(16aL	.	(16ggL	.	.
16BBJJ	.	16BJJ	.	16bJJ	.	16ff#JJ	.	.
16AALL	.	16ALL	.	16aLL	.	16ggLL	.	.
16GG	.	16G	.	16g	.	16aa	.	.
16FF#	.	16F#	.	16f#	.	16bb	.	.
16EEJJ)	.	16EJJ)	.	16eJJ)	.	16ccc#JJ)	.	.
=45	=45	=45	=45	=45	=45	=45	=45	=45
!	!LO:DY:a	!	!LO:DY:a	!	!	!	!	!
8DD'L	f f f	8D'L	f f	8d'L	f	8ddd'L	f f	V
8A'	.	8a'	.	8aa'	.	8aa'	.	.
!	!	!	!	!	!LO:DY:a	!	!	!
8F#'	sf	8f#'	sf	8ff#'	sf	8ff#'	sf	.
8D'J	.	8d'J	.	8dd'J	.	8dd'J	.	.
8CX'L	.	8cX'L	.	8ccX'L	.	8ccX'L	.	V7
8AA'	.	8A'	.	8a'	.	8a'	.	.
8FF#'	.	8F#'	.	8f#'	.	8f#'	.	.
8DD'J	.	8D'J	.	8d'J	.	8d'J	.	.
=46	=46	=46	=46	=46	=46	=46	=46	=46
!	!LO:DY:a	!	!LO:DY:a	!	!LO:DY:a	!	!	!
8CCL	f f	8CL	f	8cL	f	8cL	.	.
8BBB	.	8BB	.	8B	.	8B	.	I6
8DD	.	8D	.	8d	.	8d	.	.
8GGJ	.	8GJ	.	8gJ	.	8gJ	.	.
8BBL	.	8BL	.	8bL	.	8bL	.	.
8D	.	8d	.	8d	.	8dd	.	.
8G	.	8g	.	8g	.	8gg	.	.
8C#J	.	8c#J	.	8c#J	.	8cc#J	.	V/V
=47	=47	=47	=47	=47	=47	=47	=47	=47
8DL	f	8dL	f	8dL	f	4dd'	f	V
8A	.	8a	.	8aa	.	.	.	.
8F#	.	8f#	.	8ff#	.	4aa'	.	.
8DJ	.	8dJ	.	8ddJ	.	.	.	.
8CXL	.	8cXL	.	8ccXL	.	[2ddd	sf	V7
8AA	.	8A	.	8a	.	.	.	.
8FF#	.	8F#	.	8f#	.	.	.	.
8DDJ	.	8DJ	.	8dJ	.	.	.	.
=48	=48	=48	=48	=48	=48	=48	=48	=48
!	!LO:DY:a	!	!LO:DY:a	!	!	!	!	!
8CCL	f f	8CL	f	8cL	.	8dddL]	f	.
8BBB	.	8BB	.	8B	.	8B	.	I6
8DD	.	8D	.	8d	.	8d	.	.
8GGJ	.	8GJ	.	8gJ	.	8gJ	.	.
8BBL	.	8BL	.	8bL	.	8bL	.	.
8D	.	8d	.	8dd	.	8dd	.	.
8G	.	8g	.	8gg	.	8gg	.	.
8BJ	.	8bJ	.	8bbJ	.	8bbJ	.	.
=49	=49	=49	=49	=49	=49	=49	=49	=49
.	.	.	.	.	.	16qqddd/	sf	V
[4d	sf	4d	.	4dd	.	4.f#	.	.
16dLL]	.	4r	.	4r	.	.	.	.
16c#	.	.	.	.	.	.	.	.
16B	.	.	.	.	.	8g	.	.
16AJJ	.	.	.	.	.	.	.	.
8G'L	.	2r	.	[4d	sf	[4a	sf	.
8F#'	.	.	.	.	.	.	.	.
8E'	.	.	.	16dLL]	.	16aLL]	.	.
.	.	.	.	16d	.	16b	.	.
8D'J	.	.	.	16e	.	16cc#	.	.
.	.	.	.	16f#JJ	.	16ddJJ	.	.
=50	=50	=50	=50	=50	=50	=50	=50	=50
!	!LO:DY:a	!	!	!	!	!	!	!
8C#L	sf	[4AA	.	[4g	sf	[4ee	sf	V65/V
8D	.	.	.	.	.	.	.	.
8E	.	16AALL]	.	16gLL]	.	16eeLL]	.	.
.	.	16BB	.	16f#	.	16dd	.	.
8F#J	.	16C#	.	16e	.	16cc#	.	.
.	.	16DJJ	.	16dJJ	.	16bJJ	.	.
!	!LO:DY:a	!	!	!	!	!	!	!
8GL	sf	[4AA [4E	.	8c#L	.	8aL	.	.
8A	.	.	.	8B	.	8g	.	.
8B	.	16AALL] 16E]	.	8A	.	8f#	.	.
.	.	16AA	.	.	.	.	.	.
8c#J	.	16BB	.	8GJ	.	8eJ	.	.
.	.	16C#JJ	.	.	.	.	.	.
=51	=51	=51	=51	=51	=51	=51	=51	=51
!LO:TX:a:i:t=una corda	!	!	!	!	!	!	!	!
8DD	.	8D	.	8d	.	8d	.	V
8r	.	8r	.	8r	.	8r	.	.
!LO:TX:b:i:t=dim.	!	!LO:TX:b:i:t=dim.	!	!LO:TX:b:i:t=dim.	!	!LO:TX:b:i:t=dim.	!	!
8EE-X	.	8E-X	.	8e-X	.	8e-X	.	@none
8r	.	8r	.	8r	.	8r	.	.
8EE	.	8E	.	8E	.	8e	.	.
8r	.	8r	.	8r	.	8r	.	.
8FFX	.	8FX	.	8FX	.	8fX	.	.
8r	.	8r	.	8r	.	8r	.	.
=52	=52	=52	=52	=52	=52	=52	=52	=52
!	!	!	!LO:DY:a	!	!	!	!	!
8FF#	p	8F#	p p	8F#	.	8f#	p	.
8r	.	8r	.	8r	.	8r	.	.
8GG	.	8G	.	8G	.	8g	.	.
8r	.	8r	.	8r	.	8r	.	.
8AA-X	.	8A-X	.	8A-X	.	8a-X	.	.
8r	.	8r	.	8r	.	8r	.	.
8AA	.	8A	.	8A	.	8a	.	.
8r	.	8r	.	8r	.	8r	.	.
=53	=53	=53	=53	=53	=53	=53	=53	=53
!LO:TX:a:i:t=Corda C	!	!	!	!	!	!	!	!
2.BB-X	.	2.BB-X	.	2.B-X	.	2.b-X	.	.bVI.V
!LO:TX:b:i:t=sotto voce	!	!	!	!	!	!	!	!
16BB-LL	.	4r	.	4r	.	4r	.	.
16C	.	.	.	.	.	.	.	.
16BB-	.	.	.	.	.	.	.	.
16AA-XJJ	.	.	.	.	.	.	.	.
=54	=54	=54	=54	=54	=54	=54	=54	=54
2.GG	.	1r	.	1r	.	1r	.	iii
16GGLL	.	.	.	.	.	.	.	.
16AA-X	.	.	.	.	.	.	.	.
16GG	.	.	.	.	.	.	.	.
16FFXJJ	.	.	.	.	.	.	.	.
=55	=55	=55	=55	=55	=55	=55	=55	=55
[1EE-X	<[	2r	.	2r	.	(2G	<	I[I
.	.	(2AA	<[	(2G-	<[	2e-X)	[[	#viio7/V
=56	=56	=56	=56	=56	=56	=56	=56	=56
!	!LO:DY:a	!	!LO:DY:a	!	!	!	!	!
1EE-_	p p	2BB-X	p	2FX	.	(4d'	p <	V
.	.	.	.	.	.	4c'	.	.
.	.	2FX)	.	2d)	.	4B-X'	.	V64
.	.	.	.	.	.	4A-X')	[[	.
=57	=57	=57	=57	=57	=57	=57	=57	=57
2EE-_	.	2G	.	2e-X	.	(4G	.	I6]
.	.	.	.	.	.	4.B-X)	.	.
8EE-L]	.	2r	.	2r	.	.	.	.
(16BB-XL	.	.	.	.	.	8r	.	V
16AAJJ	.	.	.	.	.	.	.	.
16BB-LL	.	.	.	.	.	4r	.	.
16C	.	.	.	.	.	.	.	.
16BB-	.	.	.	.	.	.	.	.
16AA-XJJ)	.	.	.	.	.	.	.	.
=58	=58	=58	=58	=58	=58	=58	=58	=58
[2GG	.	1r	.	1r	.	1r	.	iii
8GGL]	.	.	.	.	.	.	.	.
(16GGL	.	.	.	.	.	.	.	.
16FF#JJ	.	.	.	.	.	.	.	.
16GGLL	.	.	.	.	.	.	.	.
16AA-X	.	.	.	.	.	.	.	.
16GG	.	.	.	.	.	.	.	.
16FFXJJ)	.	.	.	.	.	.	.	.
=59	=59	=59	=59	=59	=59	=59	=59	=59
[1EE-X	<[	2r	.	2r	.	(2g	.	I[I
.	.	[2AA	.	[2G-	.	2ee-X)	.	#viio7/V
=60	=60	=60	=60	=60	=60	=60	=60	=60
!	!LO:DY:a	!	!LO:DY:a	!	!	!	!	!
2.EE-]	p p <	2AA]	p <	2G-]	<	(4dd'	p <	#viio7(4)/V
.	.	.	.	.	.	4cc'	.	#viio7/V
.	.	(4BB-X'	.	(4GX'	.	4b-X'	.	I6]
4FFX	[[	4E-X')	[[	4A')	[[	4a')	[[	V7/V
=61	=61	=61	=61	=61	=61	=61	=61	=61
(2FFX	p	(2D	p	(2c-	p	(2a-X	p	#viio65
2GG)	.	2E-X)	.	2B-X)	.	2g)	.	I6
=62	=62	=62	=62	=62	=62	=62	=62	=62
(2AA-X'	.	(2C'	.	[2e-X'	.	[2fX'	.	ii65
2AA')	.	2c')	.	2e-']	.	2f']	.	V65/V
=63	=63	=63	=63	=63	=63	=63	=63	=63
(2.BB-X	.	(4.D	.	(2.B-X	.	(4.fX	.	V7
.	.	8E-X	.	.	.	8g	.	.
.	.	4FX)	.	.	.	4a-X)	.	.
4DD)	.	4r	.	4fX)	.	4r	.	.
=64	=64	=64	=64	=64	=64	=64	=64	=64
(2.BB-X	pp	(2.G	pp	(2G	.	(4.e-X	pp	I64
.	.	.	.	.	.	8fX	.	.
.	.	.	.	4e-X)	.	4g)	.	.
16EE-XLL)	.	16BB-XLL)	.	4r	.	16r	.	I
16GG'	.	16G'	.	.	.	16g'LL	.	.
!LO:TX:b:i:t=ben marcato	!	!LO:TX:b:i:t=ben marcato	!	!	!	!LO:TX:b:i:t=ben marcato	!	!
16FFX'	.	16FX'	.	.	.	16f'	.	.
16EE-'JJ	.	16E-X'JJ	.	.	.	16e-'JJ	.	.
=65	=65	=65	=65	=65	=65	=65	=65	=65
4DD	.	4D	.	2r	.	4d	pp	V7
16r	.	16r	.	.	.	16r	.	.
16EE-XLL	.	16E-XLL	.	.	.	16e-XLL	.	.
16DD	.	16D	.	.	.	16d	.	.
16CCJJ	.	16CJJ	.	.	.	16cJJ	.	.
4BBB-X	.	4BB-X	.	4r	.	4B-X	.	.
!	!	!	!	!	!	!LO:TX:b:i:t=ben marc.	!	!
16r	.	16r	.	16r	.	16r	.	.
16BBB-LL	.	16DLL	.	16B-XLL	.	16a-XLL	.	.
16CC	.	16E-	.	16B-	.	16g	.	vi7
16DDJJ	.	16FXJJ	.	16B-JJ	.	16fXJJ	.	V6
=66	=66	=66	=66	=66	=66	=66	=66	=66
4EE-X	.	4BB-X	.	4B-X	.	4g	.	I
4r	.	4r	.	4r	.	4r	.	.
4r	.	4r	.	2r	.	4r	.	.
16r	.	16r	.	.	.	16r	.	.
16EE-LL	.	16E-XLL	.	.	.	16e-XLL	.	.
16DD	.	16D	.	.	.	16d	.	.
16CCJJ	.	16CJJ	.	.	.	16cJJ	.	.
=67	=67	=67	=67	=67	=67	=67	=67	=67
4BBB	.	4BB	.	2r	.	4B	.	V
16r	.	16r	.	.	.	16r	.	.
16CLL	.	16CLL	.	.	.	16cLL	.	.
16BB-X	.	16BB-X	.	.	.	16B-X	.	.
16AA-XJJ	.	16A-XJJ	.	.	.	16A-XJJ	.	.
4GG	.	4G	.	4r	.	4G	.	V7/vi
16r	.	16r	.	16r	.	16r	.	.
16GGLL	.	16DLL	.	16GLL	.	16fXLL	.	.
16AA	.	16D	.	16G	.	16e-X	.	.
16BBJJ	.	16DJJ	.	16GJJ	.	16dJJ	.	.
=68	=68	=68	=68	=68	=68	=68	=68	=68
4C	.	4E-X	.	4G	.	4e-X	.	vi
16r	.	16r	.	16r	.	16r	.	.
!LO:TX:b:i:t=poco cresc.	!	!LO:TX:b:i:t=poco cresc.	!	!LO:TX:b:i:t=poco cresc.	!	!LO:TX:b:i:t=poco cresc.	!	!
16CLL	.	16E-LL	.	16GLL	.	16dLL	.	.
16C	.	16E-	.	16G	.	16c	.	.
16CJJ	.	16E-JJ	.	16GJJ	.	16B-XJJ	.	.
4FFX	.	4E-	.	4c	.	4A	.	V7/V
16r	.	16r	.	16r	.	16r	.	.
16FFLL	.	16E-LL	.	16ALL	.	16gLL	.	.
16GG	.	16D	.	16B-X	.	16fX	.	.
16AAJJ	.	16CJJ	.	16cJJ	.	16e-JJ	.	.
=69	=69	=69	=69	=69	=69	=69	=69	=69
4BB-X	.	4D	.	4FX	.	4d	.	V7
16r	.	16r	.	16r	.	16r	.	.
16BBB-XLL	.	16DLL	.	16fXLL	.	16ccLL	.	.
16BBB-	.	16D	.	16f	.	16b-X	.	.
16BBB-JJ	.	16DJJ	.	16fJJ	.	16a-XJJ	.	.
4CC	.	4E-X	.	4e-X	.	4g	.	vi
16r	.	16r	.	16r	.	16r	.	.
16CCLL	.	16E-LL	.	16GLL	.	16ee-XLL	.	.
16CC	.	16E-	.	16G	.	16dd	.	.
16CCJJ	.	16E-JJ	.	16GJJ	.	16ee-JJ	.	.
=70	=70	=70	=70	=70	=70	=70	=70	=70
4AA-X	.	4E-X	pp	4c	.	4fX	pp	ii6
16r	.	16r	.	16r	.	16r	.	.
16FFXLL	.	16E-LL	.	16ALL	.	16ccLL	.	V7/V
16FF	.	16E-	.	16A	.	16b	.	.
16FFJJ	.	16E-JJ	.	16AJJ	.	16ccJJ	.	.
4BB-X	.	4FX	.	4A-X	.	4d	.	V7
4r	.	[4BB-X	.	4r	.	(16ggLL	.	.
.	.	.	.	.	.	16aa-X	.	.
.	.	.	.	.	.	16gg	.	.
.	.	.	.	.	.	16ffXJJ	.	.
=71||	=71||	=71||	=71||	=71||	=71||	=71||	=71||	=71||
*k[b-e-a-]	*	*k[b-e-a-]	*	*k[b-e-a-]	*	*k[b-e-a-]	*	*
*E-:	*	*E-:	*	*E-:	*	*E-:	*	*
!	!LO:DY:a	!	!	!	!	!	!	!
(2EE-	pp	(4BB-]	.	[1B-X	.	16ggLL	pp	I
.	.	.	.	.	.	16aa-	.	.
.	.	.	.	.	.	16gg	.	.
.	.	.	.	.	.	16ffJJ	.	.
.	.	2C	.	.	.	16ee-LL	.	I(+6)
.	.	.	.	.	.	16ff	.	.
.	.	.	.	.	.	16ee-	.	.
.	.	.	.	.	.	16ddJJ)	.	.
2FF	.	.	.	.	.	(16ddLL	.	V64(+2)
.	.	.	.	.	.	16ee-	.	.
.	.	.	.	.	.	16dd	.	.
.	.	.	.	.	.	16ccJJ	.	.
.	.	[4D)	.	.	.	16b-LL	.	V64
.	.	.	.	.	.	16cc	.	.
.	.	.	.	.	.	16b-	.	.
.	.	.	.	.	.	16aJJ	.	.
=72	=72	=72	=72	=72	=72	=72	=72	=72
!LO:TX:b:i:t=cresc.	!	!LO:TX:b:i:t=cresc.	!	!LO:TX:b:i:t=cresc.	!	!LO:TX:b:i:t=cresc.	!	!
2GG	.	(4D]	.	1B-_	.	16a-XLL	.	iii
.	.	.	.	.	.	16b-	.	.
.	.	.	.	.	.	16a-	.	.
.	.	.	.	.	.	16gJJ	.	.
.	.	4E-	.	.	.	16fLL	.	I6
.	.	.	.	.	.	16g	.	.
.	.	.	.	.	.	16f	.	.
.	.	.	.	.	.	16e-JJ	.	.
4AA-	.	4F	.	.	.	16dLL	.	V2
.	.	.	.	.	.	16e-	.	.
.	.	.	.	.	.	16d	.	.
.	.	.	.	.	.	16cJJ	.	.
4BB-)	.	4D)	.	.	.	16B-LL	.	V
.	.	.	.	.	.	16c	.	.
.	.	.	.	.	.	16B-	.	.
.	.	.	.	.	.	16A-JJ)	.	.
=73	=73	=73	=73	=73	=73	=73	=73	=73
!	!LO:DY:a	!	!LO:DY:a	!	!LO:DY:a	!	!	!
4E-'	p p	4BB-'	p	(16B-LL]	p	4G'	.	I
.	.	.	.	16c	.	.	.	.
.	.	.	.	16B-	.	.	.	.
.	.	.	.	16AJJ	.	.	.	.
4E-'	.	4G'	.	16B-LL	.	4g'	.	.
.	.	.	.	16c	.	.	.	.
.	.	.	.	16B-	.	.	.	.
.	.	.	.	16A-XJJ)	.	.	.	.
4D'	.	4F'	.	(16GLL	.	4b-'	.	V6
.	.	.	.	16A-	.	.	.	.
.	.	.	.	16G	.	.	.	.
.	.	.	.	16FJJ)	.	.	.	.
4D'	.	4B-'	.	(16gLL	.	4b-'	.	.
.	.	.	.	16a-	.	.	.	.
.	.	.	.	16g	.	.	.	.
.	.	.	.	16fJJ)	.	.	.	.
=74	=74	=74	=74	=74	=74	=74	=74	=74
!LO:TX:b:i:t=cresc.	!	!LO:TX:b:i:t=cresc.	!	!LO:TX:b:i:t=cresc.	!	!LO:TX:b:i:t=cresc.	!	!
(4C	.	(4e-	.	(16e-LL	.	(4cc	.	vi
.	.	.	.	16f	.	.	.	.
.	.	.	.	16e-	.	.	.	.
.	.	.	.	16dJJ	.	.	.	.
4BB-	.	4d	.	16e-LL	.	4dd	.	V
.	.	.	.	16f	.	.	.	.
.	.	.	.	16e-	.	.	.	.
.	.	.	.	16dJJ)	.	.	.	.
4AA	.	4c	.	(16dLL	.	4ee-	.	#viio/V
.	.	.	.	16e-	.	.	.	.
.	.	.	.	16d	.	.	.	.
.	.	.	.	16cJJ)	.	.	.	.
4AA-X)	.	4F)	.	(16cLL	.	4ff)	.	V2
.	.	.	.	16B-	.	.	.	.
.	.	.	.	16c	.	.	.	.
.	.	.	.	16dJJ)	.	.	.	.
=75	=75	=75	=75	=75	=75	=75	=75	=75
!	!LO:DY:a	!	!	!	!	!	!	!
4GG'	p p	4BB-	.	(16B-LL	p	4ee-'	p	I6
.	.	.	.	16c	.	.	.	.
.	.	.	.	16B-	.	.	.	.
.	.	.	.	16A-JJ)	.	.	.	.
4AA-'	.	(16CLL	.	(16A-LL	.	4ff'	.	ii6
.	.	16D	.	16B-	.	.	.	.
.	.	16C	.	16A-	.	.	.	.
.	.	16E-JJ)	.	16GJJ)	.	.	.	.
4BB-'	.	(16E-LL	.	(16GLL	.	4b-'	.	V(64)
.	.	16F	.	16A-	.	.	.	.
.	.	16E-	.	16G	.	.	.	.
.	.	16DJJ	.	16FJJ)	.	.	.	.
4BB-'	.	16E-LL	.	(16GLL	.	4dd'	.	V
.	.	16F	.	16A-	.	.	.	.
.	.	16E-	.	16G	.	.	.	.
.	.	16DJJ)	.	16FJJ)	.	.	.	.
=76	=76	=76	=76	=76	=76	=76	=76	=76
4r	.	4E-	.	4G	.	4r	.	I\\
4FF'	.	4r	.	4r	.	(16a-LL	.	ii
.	.	.	.	.	.	16b-	.	.
.	.	.	.	.	.	16a-	.	.
.	.	.	.	.	.	16gJJ)	.	.
4BBB-'	.	2r	.	4r	.	4f'	.	V
4DD'	.	.	.	(16b-LL	.	4f'	.	V65
.	.	.	.	16cc	.	.	.	.
.	.	.	.	16b-	.	.	.	.
.	.	.	.	16a-JJ)	.	.	.	.
=77	=77	=77	=77	=77	=77	=77	=77	=77
4GG'	.	4r	.	4g'	.	(16e-LL	.	I6
.	.	.	.	.	.	16gg	.	.
.	.	.	.	.	.	16ff	.	.
.	.	.	.	.	.	16ee-JJ	.	.
4GG'	.	(16FLL	.	4r	.	16ddLL	.	.
.	.	16G	.	.	.	16ee-	.	.
.	.	16F	.	.	.	16dd	.	.
.	.	16E-JJ)	.	.	.	16ccJJ	.	.
4BB-'	.	4D'	.	4d'	.	16b-LL	.	V
.	.	.	.	.	.	16cc	.	.
.	.	.	.	.	.	16b-	.	.
.	.	.	.	.	.	16a-JJ	.	.
4BB-'	.	4d'	.	4d'	.	16gLL	.	.
.	.	.	.	.	.	16a-	.	.
.	.	.	.	.	.	16g	.	.
.	.	.	.	.	.	16fJJ)	.	.
=78	=78	=78	=78	=78	=78	=78	=78	=78
!LO:TX:a:i:t=cresc.	!	!LO:TX:a:i:t=cresc.	!	!LO:TX:a:i:t=cresc.	!	!	!	!
(4C	.	4G	.	4e-'	.	4e-	.	vi
4D	.	(16FLL	.	4c'	.	4r	.	viio7
.	.	16G	.	.	.	.	.	.
.	.	16F	.	.	.	.	.	.
.	.	16E-JJ)	.	.	.	.	.	.
4E-	.	4E-'	.	4g'	.	2r	.	V2/vi
4F)	.	(16e-LL	.	4g'	.	.	.	.
.	.	16f	.	.	.	.	.	.
.	.	16e-	.	.	.	.	.	.
.	.	16dJJ)	.	.	.	.	.	.
=79	=79	=79	=79	=79	=79	=79	=79	=79
4E-'	p	4c'	p	(4g	p	1r	.	V6
4F'	.	4c'	.	4a	.	.	.	.
4BB-'	.	4d'	.	4b-	.	.	.	.
(16DLL	.	(16B-LL	.	4f)	.	.	.	.
16E-	.	16G	.	.	.	.	.	.
16D	.	16F	.	.	.	.	.	.
16CJJ)	.	16E-JJ)	.	.	.	.	.	.
=80	=80	=80	=80	=80	=80	=80	=80	=80
(16CLL	.	(16E-LL	.	4e-'	.	2r	.	V
16D	.	16F	.	.	.	.	.	.
16C	.	16E-	.	.	.	.	.	.
16BB-JJ)	.	16DJJ)	.	.	.	.	.	.
(16BB-LL	.	(16dLL	.	4f'	.	.	.	.
16C	.	16e-	.	.	.	.	.	.
16BB-	.	16d	.	.	.	.	.	.
16AA-JJ)	.	16cJJ)	.	.	.	.	.	.
(16AA-LL	.	(16cLL	.	4B-'	.	4r	.	I6
16GG	.	16B-	.	.	.	.	.	.
16FF	.	16A-	.	.	.	.	.	.
16EE-JJ)	.	16GJJ)	.	.	.	.	.	.
4r	.	4G'	.	4r	.	(16ee-LL	.	.
.	.	.	.	.	.	16ff	.	.
.	.	.	.	.	.	16ee-	.	.
.	.	.	.	.	.	16ddJJ)	.	.
=81	=81	=81	=81	=81	=81	=81	=81	=81
4r	.	4F'	.	4r	.	(16ddLL	.	V64
.	.	.	.	.	.	16ee-	.	.
.	.	.	.	.	.	16dd	.	.
.	.	.	.	.	.	16ccJJ)	.	.
(16GGLL	.	4G'	.	4ee-'	.	(16b-LL	.	I6
16AA-	.	.	.	.	.	16cc	.	.
16GG	.	.	.	.	.	16b-	.	.
16FFJJ)	.	.	.	.	.	16a-JJ)	.	.
(16FFLL	.	4BB-'	.	4g'	.	(16a-LL	.	I
16EE-	.	.	.	.	.	16g	.	.
16DD	.	.	.	.	.	16f	.	.
16EE-JJ)	.	.	.	.	.	16e-JJ)	.	.
!LO:TX:b:i:t=cresc.	!	!	!	!LO:TX:b:i:t=cresc.	!	!LO:TX:b:i:t=cresc.	!	!
(16FFLL	.	4r	.	4a-X'	.	(16aa-LL	.	ii
16GG	.	.	.	.	.	16bb-	.	.
16FF	.	.	.	.	.	16aa-	.	.
16EE-JJ)	.	.	.	.	.	16ggJJ)	.	.
=82	=82	=82	=82	=82	=82	=82	=82	=82
!	!	!LO:TX:b:i:t=cresc.	!	!	!	!	!	!
(16DDLL	.	(16fLL	.	4a-'	.	4ff'	.	V65
16EE-	.	16g	.	.	.	.	.	.
16DD	.	16f	.	.	.	.	.	.
16CCJJ)	.	16e-JJ)	.	.	.	.	.	.
4BBB'	.	4d'	.	4dd'	.	(16ggLL	.	V6/vi
.	.	.	.	.	.	16aa-	.	.
.	.	.	.	.	.	16gg	.	.
.	.	.	.	.	.	16ffJJ)	.	.
(16CCLL	.	(16e-LL	.	4g'	.	4ee-'	.	vi
16DD	.	16f	.	.	.	.	.	.
16CC	.	16e-	.	.	.	.	.	.
16BBB-XJJ)	.	16dJJ)	.	.	.	.	.	.
4AAA'	.	4c'	.	(16fLL	.	(16ffLL	.	V6/V
.	.	.	.	16e-	.	16gg	.	.
.	.	.	.	16d	.	16ff	.	.
.	.	.	.	16cJJ)	.	16ee-JJ)	.	.
=83	=83	=83	=83	=83	=83	=83	=83	=83
4BBB-'	.	4r	.	(16dLL	.	(16ddLL	.	V
.	.	.	.	16e-	.	16cc	.	.
.	.	.	.	16d	.	16b-	.	.
.	.	.	.	16cJJ)	.	16aJJ)	.	.
4EE-'	.	(16e-LL	.	4B-'	.	8g'L	.	I
.	.	16f	.	.	.	.	.	.
.	.	16e-	.	.	.	8gg'J	.	.
.	.	16dJJ)	.	.	.	.	.	.
4AAA'	.	4c'	.	(16cLL	.	(16aaLL	.	#viio/V
.	.	.	.	16d	.	16bb-	.	.
.	.	.	.	16c	.	16aa	.	.
.	.	.	.	16B-JJ)	.	16ggJJ)	.	.
*clefC4	*	*	*	*	*	*	*	*
(16dLL	.	4D'	.	4A'	.	8ff#'L	.	V/iii
16e-	.	.	.	.	.	.	.	.
16d	.	.	.	.	.	8ddd'J	.	.
16cJJ)	.	.	.	.	.	.	.	.
=84	=84	=84	=84	=84	=84	=84	=84	=84
4B'	.	4d'	.	(16gLL	.	8g'L	.	V6/vi
.	.	.	.	16a-X	.	.	.	.
.	.	.	.	16g	.	8dd'J	.	.
.	.	.	.	16fJJ	.	.	.	.
(16cLL	.	(16cLL	.	8e-'L)	.	[4ee-	.	vi
16d	.	16f	.	.	.	.	.	.
16c	.	16e-	.	[8ccJ	.	.	.	.
16B-XJJ)	.	16dJJ)	.	.	.	.	.	.
(16A-XLL	.	(16cLL	.	8ccL]	.	8ee-L]	.	IV
16B-	.	16d	.	.	.	.	.	.
16A-	.	16c	.	8cc'	.	8ee-'	.	.
16GJJ)	.	16B-JJ)	.	.	.	.	.	.
(16FLL	.	(16A-XLL	.	8dd'	.	8ffX'	.	viio6
16G	.	16B-	.	.	.	.	.	.
16F	.	16A-	.	8ee-'J	.	8gg'J	.	I
16E-JJ)	.	16GJJ)	.	.	.	.	.	.
=85	=85	=85	=85	=85	=85	=85	=85	=85
8D'L	.	8F'L	.	(16ffLL	.	8aa-X'L	.	viio
.	.	.	.	16gg	.	.	.	.
8C'	.	8f'	.	16ff	.	8aa'J	.	V43/V
.	.	.	.	16ee-JJ)	.	.	.	.
8BB-'	sf	8BB-'	sf	(16ddLL	sf	(4bb-	sf	VM2
.	.	.	.	16ee-	.	.	.	.
8AA'J	.	8F'J	.	16dd	.	.	.	.
.	.	.	.	16ccJJ)	.	.	.	.
8AA-X'L	.	8BB-L	.	(16b-LL	.	8bb-L)	.	V2
.	.	.	.	16cc	.	.	.	.
8GG'	.	8B-J	.	16b-	.	8ccc'J	.	vi43
.	.	.	.	16a-JJ)	.	.	.	.
!	!LO:DY:a	!	!	!	!	!	!	!
8FF'	sf sf	8BB-L	.	(16gLL	sf	(4ddd	sf	IM7
.	.	.	.	16a-	.	.	.	.
8EE-'J	.	8B-J	.	16g	.	.	.	.
.	.	.	.	16fJJ)	.	.	.	.
=86	=86	=86	=86	=86	=86	=86	=86	=86
8DDL	.	8BB-L	.	(16fLL	.	8dddL)	.	V6
.	.	.	.	16g	.	.	.	.
8CC	.	8B-J	.	16f	.	8eee-'J	.	vi7
.	.	.	.	16e-JJ)	.	.	.	.
!	!LO:DY:a	!	!	!	!	!	!	!
8BBB-	sf sf	8BB-L	.	(16dLL	sf	(4fff	sf	V6/V
.	.	.	.	16e-	.	.	.	.
8AAAJ	.	8FJ	.	16d	.	.	.	.
.	.	.	.	16cJJ)	.	.	.	.
8AA-XL	.	8DL	.	(16B-LL	.	8fffL)	.	V2
.	.	.	.	16c	.	.	.	.
8FF	.	8B-J	.	16B-	.	8dd'	.	V64
.	.	.	.	16A-JJ)	.	.	.	.
8EE-	.	8BB-L	.	(16GLL	.	8ee-'	.	I
.	.	.	.	16A-	.	.	.	.
8DDJ	.	8FJ	.	16G	.	8ff'J	.	V6
.	.	.	.	16FJJ)	.	.	.	.
=87	=87	=87	=87	=87	=87	=87	=87	=87
2EE-	ff	(16E-LL	ff	1e-	ff	2gg	ff	I
.	.	16F	.	.	.	.	.	.
.	.	16E-	.	.	.	.	.	.
.	.	16DJJ	.	.	.	.	.	.
.	.	16E-LL	.	.	.	.	.	.
.	.	16F	.	.	.	.	.	.
.	.	16E-	.	.	.	.	.	.
.	.	16DJJ	.	.	.	.	.	.
2AA-	sf	16E-LL	sf	.	.	2ccc	sf	IV
.	.	16F	.	.	.	.	.	.
.	.	16E-	.	.	.	.	.	.
.	.	16DJJ	.	.	.	.	.	.
.	.	16E-LL	.	.	.	.	.	.
.	.	16F	.	.	.	.	.	.
.	.	16E-	.	.	.	.	.	.
.	.	16DJJ)	.	.	.	.	.	.
=88	=88	=88	=88	=88	=88	=88	=88	=88
2GG	sf	(16E-LL	sf	2e-	sf	2bb-	sf	I6
.	.	16F	.	.	.	.	.	.
.	.	16E-	.	.	.	.	.	.
.	.	16DJJ)	.	.	.	.	.	.
.	.	(16DLL	.	.	.	.	.	.
.	.	16E-	.	.	.	.	.	.
.	.	16D	.	.	.	.	.	.
.	.	16CJJ)	.	.	.	.	.	.
!	!LO:DY:a	!	!	!	!	!	!	!
2FF	sf sf	(16CLL	.	2a-	sf	2ddd	sf	viio6
.	.	16D	.	.	.	.	.	.
.	.	16C	.	.	.	.	.	.
.	.	16BB-JJ)	.	.	.	.	.	.
.	.	(16CLL	.	.	.	.	.	.
.	.	16D	.	.	.	.	.	.
.	.	16C	.	.	.	.	.	.
.	.	16BB-JJ)	.	.	.	.	.	.
=89	=89	=89	=89	=89	=89	=89	=89	=89
!	!LO:DY:a	!	!	!	!	!	!	!
(16FFLL	sf sf	2BB-	.	2g	sf >	2eee-	sf >	I
16GG	.	.	.	.	.	.	.	.
16FF	.	.	.	.	.	.	.	.
16EE-JJ	.	.	.	.	.	.	.	.
16FFLL	.	.	.	.	.	.	.	.
16GG	.	.	.	.	.	.	.	.
16FF	.	.	.	.	.	.	.	.
16EE-JJ)	.	.	.	.	.	.	.	.
!	!LO:DY:a	!	!	!	!	!	!	!
(16EE-LL	sf sf	4BB-	.	2a-	sf ]]	2fff	sf ]]	V7
16FF	.	.	.	.	.	.	.	.
16EE-	.	.	.	.	.	.	.	.
16DDJJ	.	.	.	.	.	.	.	.
16CCLL	>	(16CLL	>	.	.	.	.	.
16DD	.	16BB-	.	.	.	.	.	.
16CC	.	16C	.	.	.	.	.	.
16BBB-JJ)	]]	16DJJ)	]]	.	.	.	.	.
=90	=90	=90	=90	=90	=90	=90	=90	=90
8EE-'L	p	8E-'L	p	8g'L	p	8eee-'L	p	I\\
8E-'	.	8E-'	.	8e-'	.	8e-'	.	.
(8E-	.	(8E-	.	(8e-	.	(8e-	.	V2/IV
8D-XJ)	.	8D-XJ)	.	8d-XJ)	.	8d-XJ)	.	.
(8D-L	.	(8D-L	.	(8d-L	.	(8d-L	.	.
8C	.	8C	.	8c	.	8c	.	IV
8E-J)	.	8E-J)	.	8e-J)	.	8e-J)	.	.
8C'	.	8C'	.	8c'	.	8c'	.	.
=91	=91	=91	=91	=91	=91	=91	=91	=91
(8CL	.	(8CL	.	(8cL	.	(8cL	.	@none
8BB-	.	8BB-	.	8B-	.	8B-	.	.
8E-J)	.	8E-J)	.	8e-J)	.	8e-J)	.	V2/IV
8D-X'	.	8D-X'	.	8d-X'	.	8d-X'	.	.
(8D-L	.	(8D-L	.	(8d-L	.	(8d-L	.	.
8C	.	8C	.	8c	.	8c	.	IV
8E-J)	.	8E-J)	.	8e-J)	.	8e-J)	.	.
8C'	.	8C'	.	8c'	.	8c'	.	.
=92	=92	=92	=92	=92	=92	=92	=92	=92
!LO:TX:b:t=più	!	!LO:TX:b:t=più	!	!LO:TX:b:t=più	!	!LO:TX:b:t=più	!	!
(8CL	.	(8CL	.	(8cL	.	(8cL	.	.
!	!LO:DY:a	!	!	!	!	!	!	!
8BB-	p p	8BB-	.	8B-	p	8B-	p	.
8E-J)	.	8E-J)	.	8e-J)	.	8e-J)	.	.
8AA-'	.	8A-'	.	8A-'	.	8A-'	.	.
(8AA-L	.	(8A-L	.	(8A-L	.	(8A-L	.	.
8GG	.	8G	.	8G	.	8G	.	.
8E-J)	.	8e-J)	.	8e-J)	.	8e-J)	.	.
8GG'	.	8G'	.	8G'	.	8G'	.	.
=93	=93	=93	=93	=93	=93	=93	=93	=93
!	!	!	!	!	!LO:DY:a	!	!	!
4GG	pp	4G	pp	4G	pp pp	4G	.	.
2.FF#;	.	2.F#;	.	2.F#;	.	2.F#;	.	.
=94:|!	=94:|!	=94:|!	=94:|!	=94:|!	=94:|!	=94:|!	=94:|!	=94:|!
!LO:TX:b:t=più	!	!LO:TX:b:t=più	!	!LO:TX:b:t=più	!	!LO:TX:b:t=più	!	!
(8CL	.	(8CL	.	(8cL	.	(8cL	.	@none
8BB-	p	8BB-	p	8B-	p	8B-	p	.
8E-J)	.	8E-J)	.	8e-J)	.	8e-J)	.	.
8AA-'	.	8A-'	.	8A-'	.	8A-'	.	.
(8AA-L	.	(8A-L	.	(8A-L	.	(8A-L	.	.
8GG	.	8G	.	8G	.	8G	.	.
8E-J)	.	8e-J)	.	8e-J)	.	8e-J)	.	.
8EE-'	.	8E-'	.	8e-'	.	8e-'	.	.
=95	=95	=95	=95	=95	=95	=95	=95	=95
!	!	!	!	!	!	!LO:TX:a:B:t=Tempo I.	!	!
4EE-	pp	4E-	pp	4e-	pp	4e-	pp	.
2DD;	.	2D;	.	2d;	.	2d;	.	V
(4EE-	.	[4E-	.	4r	.	4r	.	I
=96	=96	=96	=96	=96	=96	=96	=96	=96
*M3/4	*	*M3/4	*	*M3/4	*	*M3/4	*	*
!LO:TX:b:i:t=cresc.	!	!LO:TX:b:i:t=cresc.	!LO:DY:a	!LO:TX:b:i:t=cresc.	!	!LO:TX:a:B:t=Tempo I.	!	!
4.DD	.	2.E-_	p	(4.F	.	2.r	.	IV6
8DD-X	.	.	.	8G	.	.	.	.
8CCL	.	.	.	8A-L)	.	.	.	.
8AA-J)	.	.	.	8A-J	.	.	.	.
=97	=97	=97	=97	=97	=97	=97	=97	=97
(4GG	p	(4E-]	p	4.B-	p	2.r	.	V64
8FF)	.	8D)	.	.	.	.	.	.
8r	.	8r	.	8r	.	.	.	.
4r	.	4r	.	4r	.	.	.	.
=98	=98	=98	=98	=98	=98	=98	=98	=98
*M4/4	*	*M4/4	*	*M4/4	*	*M4/4	*	*
*met(c)	*	*met(c)	*	*met(c)	*	*met(c)	*	*
!	!	!	!LO:DY:a	!	!	!LO:TX:a:B:t=Allegro.	!	!
1r	.	1r	pp	4r	.	4r	.	.
.	.	.	.	16a#XLL	.	4a#X	pp	I
.	.	.	.	16b#X	.	.	.	.
!	!	!	!	!LO:TX:b:i:t=non ligato	!	!	!	!
.	.	.	.	16a#	.	.	.	.
.	.	.	.	16g#JJ	.	.	.	.
.	.	.	.	16f##XLL	.	4a#	.	.
.	.	.	.	16g#	.	.	.	.
.	.	.	.	16f##	.	.	.	.
.	.	.	.	16e#XJJ	.	.	.	.
.	.	.	.	4d#X	.	8a#L	.	.
.	.	.	.	.	.	8a#J	.	.
=99||	=99||	=99||	=99||	=99||	=99||	=99||	=99||	=99||
*k[f#c#g#d#a#]	*	*k[f#c#g#d#a#]	*	*k[f#c#g#d#a#]	*	*k[f#c#g#d#a#]	*	*
*B:	*	*B:	*	*B:	*	*B:	*	*
*M3/4	*	*M3/4	*	*M3/4	*	*M3/4	*	*
!	!	!	!	!	!	!LO:TX:a:B:t=Adagio ma non troppo.	!	!
4r	.	4r	.	4r	.	2dd#X	p	III.I
4r	.	4r	.	4r	.	.	.	.
!	!LO:DY:a	!	!LO:DY:a	!	!	!	!	!
(4BBB	p	(4BB	p	[4B	.	4r	.	.
=100	=100	=100	=100	=100	=100	=100	=100	=100
!LO:TX:b:i:t=cresc.	!	!LO:TX:b:i:t=cresc.	!	!LO:TX:b:i:t=cresc.	!	!	!	!
4.AAA#	.	4.C#	.	2B_	.	2r	.	V2/IV
16AAALL	.	8D#	.	.	.	.	.	.
16AAJJ	.	.	.	.	.	.	.	.
8GG#L	.	8EL)	.	(8BL]	.	8r	.	I6
8AA#XJ)	.	8EJ	.	8c#J)	.	8r	.	viio
=101	=101	=101	=101	=101	=101	=101	=101	=101
!	!	!	!LO:DY:a	!	!	!	!	!
4AA#	p	4E	p p	2F#	.	2.r	.	I
4BB	.	4D#	.	.	.	.	.	.
4r	.	4r	.	4r	.	.	.	.
=102	=102	=102	=102	=102	=102	=102	=102	=102
*M4/4	*	*M4/4	*	*M4/4	*	*M4/4	*	*
*met(c)	*	*met(c)	*	*met(c)	*	*met(c)	*	*
!	!	!	!	!	!	!LO:TX:a:B:t=Allegro.	!	!
1r	.	1r	.	4r	.	4r	.	I
!	!	!	!	!LO:TX:b:i:t=non ligato	!	!	!	!
.	.	.	.	16f#LL	pp	4f#	pp	.
.	.	.	.	16g#	.	.	.	.
.	.	.	.	16f#	.	.	.	.
.	.	.	.	16eJJ	.	.	.	.
.	.	.	.	16d#LL	.	4f#	.	.
.	.	.	.	16e	.	.	.	.
.	.	.	.	16d#	.	.	.	.
.	.	.	.	16c#JJ	.	.	.	.
.	.	.	.	4B	.	8f#L	.	.
.	.	.	.	.	.	8f#J	.	.
=103	=103	=103	=103	=103	=103	=103	=103	=103
*M3/4	*	*M3/4	*	*M3/4	*	*M3/4	*	*
!	!	!	!	!	!	!LO:TX:a:B:t=Adagio ma non troppo.	!	!
4r	.	4r	.	4r	.	2b	.	.
4r	.	4r	.	4r	.	.	.	.
8r	.	8r	.	8r	.	8r	.	.
!LO:TX:b:i:t=espressivo	!	!LO:TX:b:i:t=espressivo	!	!LO:TX:b:i:t=espressivo	!	!	!	!
8AA#	.	8E	.	8c#	.	8r	.	viio
=104	=104	=104	=104	=104	=104	=104	=104	=104
(4AA#	.	(4E	.	2F#	.	4r	.	V65
4BB)	.	4D#)	.	.	.	4r	.	I
4r	.	8r	.	8r	.	8r	.	.
!	!	!	!	!	!	!LO:TX:b:i:t=espressivo	!	!
.	.	8A#	.	8e	.	8cc#	.	viio
=105	=105	=105	=105	=105	=105	=105	=105	=105
4r	.	(4A#	.	(4e	.	2f#	.	I
4r	.	4B)	.	4d#)	.	.	.	.
8r	.	8r	.	8r	.	8r	.	.
8AA#	.	8E	.	8c#	.	8r	.	viio
=106	=106	=106	=106	=106	=106	=106	=106	=106
*M4/4	*	*M4/4	*	*M4/4	*	*M4/4	*	*
*met(c)	*	*met(c)	*	*met(c)	*	*met(c)	*	*
!LO:TX:b:i:t=sempre	!	!LO:TX:b:i:t=sempre	!LO:DY:a	!LO:TX:b:i:t=sempre	!	!LO:TX:a:B:t=Allegro.	!	!
(4AA#	p	(4E	p p	4.F#	.	1r	.	I
8BB)	.	8D#)	.	.	.	.	.	.
8r	.	8r	.	8r	.	.	.	.
(4AA#	.	(4E	.	4.F#	.	.	.	.
8BB)	.	8D#)	.	.	.	.	.	.
8r	.	8r	.	8r	.	.	.	.
=107	=107	=107	=107	=107	=107	=107	=107	=107
(4AA#	.	(4E	.	4.F#	.	4r	p	V65
!	!	!	!	!	!	!LO:TX:b:i:t=sempre	!	!
8BB)	.	8D#)	.	.	.	4f#	.	I
8r	.	8r	.	8r	.	.	.	.
(4AA#	.	(4E	.	4F#	.	4f#	.	V65
!	!	!	!	!LO:TX:b:i:t=non ligato	!	!	!	!
8BB)	.	8D#)	.	16f#LL	.	8f#L	.	I
.	.	.	.	16g#	.	.	.	.
8r	.	8r	.	16f#	.	8f#J	.	.
.	.	.	.	16eJJ	.	.	.	.
=108	=108	=108	=108	=108	=108	=108	=108	=108
(2F#	.	(4B	.	(4d#	.	4b	.	I64
.	.	8D#)	.	8B)	.	4r	.	I6
.	.	8r	.	8r	.	.	.	.
[2f#)	.	(4B	.	(4d#	.	2r	.	I6
.	.	8D#)	.	8B)	.	.	.	.
.	.	8r	.	8r	.	.	.	.
=109	=109	=109	=109	=109	=109	=109	=109	=109
(4f#]	.	(4D#	.	(4B	.	1r	.	I
8eL	.	8BB)	.	8F#)	.	.	.	.
8d#J	.	8r	.	8r	.	.	.	.
8c#L	.	(4F#	.	(4d#	.	.	.	.
8B	.	.	.	.	.	.	.	.
8d#	.	8BB)	.	8F#)	.	.	.	.
8BJ)	.	8r	.	8r	.	.	.	.
=110	=110	=110	=110	=110	=110	=110	=110	=110
(4GG#	.	(4E	.	(4B	.	1r	.	V2/IV
8AA)	.	8D#)	.	8F#)	.	.	.	.
8r	.	8r	.	8r	.	.	.	.
(4GG#	.	(4E	.	(4B	.	.	.	.
8AA)	.	8D#)	.	8F#)	.	.	.	.
8r	.	8r	.	8r	.	.	.	.
=111	=111	=111	=111	=111	=111	=111	=111	=111
(4GG#	.	(4E	.	(4B	.	4r	.	IV6
8AA)	.	8D#)	.	8F#)	.	4b	.	V2/IV
8r	.	8r	.	8r	.	.	.	.
(4GG#	.	(4E	.	4B	.	4b	.	IV6
!	!	!	!	!LO:TX:b:i:t=non ligato	!	!	!	!
8AA)	.	8D#)	.	16f#LL	.	8bL	.	V2/IV
.	.	.	.	16g#	.	.	.	.
8r	.	8r	.	16f#	.	8bJ	.	.
.	.	.	.	16eJJ	.	.	.	.
=112	=112	=112	=112	=112	=112	=112	=112	=112
(2F#	<	(4AA	.	(4e 4.F#	.	2bb	.	V
.	.	8BB)	.	8d#)	.	.	.	.
.	.	8r	.	8r	.	.	.	.
[2f#)	.	(4AA	.	(4e 4.F#	.	2r	.	V
.	.	8BB)	.	8d#)	.	.	.	.
.	.	8r	.	8r	.	.	.	.
=113	=113	=113	=113	=113	=113	=113	=113	=113
4f#]	.	(4AA	.	(4F# 4f#	.	1r	.	V7
8eL	.	8BB)	.	8A)	.	.	.	.
8d#J	[ >	8r	.	8r	.	.	.	.
8c#L	.	(4AA	.	(4F# 4f#	.	.	.	.
8B	.	.	.	.	.	.	.	.
8c#	.	8BB)	.	8A)	.	.	.	.
8d#J	]]	8r	.	8r	.	.	.	.
=114	=114	=114	=114	=114	=114	=114	=114	=114
(4f#	.	(4BB	.	(4A	.	4r	.	.
8e)	.	8E)	.	8G#)	.	4ee	.	I\\
8r	.	8r	.	8r	.	.	.	.
2r	.	(4BB	.	(4A 4f#	.	4ee	.	V7
.	.	8E)	.	8G#) 8e	.	8eeL	.	I
.	.	8r	.	8r	.	8eeJ	.	.
*clefF4	*	*	*	*	*	*	*	*
=115||	=115||	=115||	=115||	=115||	=115||	=115||	=115||	=115||
*k[f#c#g#d#]	*	*k[f#c#g#d#]	*	*k[f#c#g#d#]	*	*k[f#c#g#d#]	*	*
*E:	*	*E:	*	*E:	*	*E:	*	*
4r	.	(4B	.	(4G# 4e	.	2aa	.	V7
4BBB	.	8A)	.	8F#) 8d#	.	.	.	.
.	.	8r	.	8r	.	.	.	.
4BBB	.	(4B	.	(4G# 4e	.	2r	.	V7
8BBBL	.	8A)	.	8F#) 8d#	.	.	.	.
8BBBJ	.	8r	.	8r	.	.	.	.
=116	=116	=116	=116	=116	=116	=116	=116	=116
(4DD#	.	(4A 4.BB	.	(4f#	.	1r	.	I
8EE)	.	8G#)	.	8e)	.	.	.	.
8r	.	8r	.	8r	.	.	.	.
(4DD#	.	(4A 4.BB	.	(4f#	.	.	.	.
8EE)	.	8G#)	.	8e)	.	.	.	.
8r	.	8r	.	8r	.	.	.	.
=117	=117	=117	=117	=117	=117	=117	=117	=117
(4DD#	.	(4A 4.BB	.	(4f#	.	4r	.	V65
8EE)	.	8G#)	.	8e)	.	4b	.	I
8r	.	8r	.	8r	.	.	.	.
(4DD#	.	16ALL 4.BB	.	4f#	.	4b	.	V65
.	.	16B	.	.	.	.	.	.
.	.	16A	.	.	.	.	.	.
.	.	16G#JJ	.	.	.	.	.	.
8EE)	.	8G#	.	16g#LL	.	8bL	.	I
.	.	.	.	16a	.	.	.	.
8r	.	8r	.	16g#	.	8bJ	.	.
.	.	.	.	16f#JJ	.	.	.	.
=118	=118	=118	=118	=118	=118	=118	=118	=118
(2BB	<	(4F#	.	(4A	.	2ee	.	I64
.	.	8E)	.	8G#)	.	.	.	.
.	.	8r	.	8r	.	.	.	.
[2B)	.	(4G#	.	(4e	.	2r	.	I
.	.	8E)	.	8G#)	.	.	.	.
.	.	8r	.	8r	.	.	.	.
=119	=119	=119	=119	=119	=119	=119	=119	=119
(4B]	.	(4G#	.	(4e	.	1r	.	I
8AL	.	8E)	.	8B)	.	.	.	.
8G#J	[ >	8r	.	8r	.	.	.	.
8F#L	.	(4G#	.	(4e	.	.	.	.
8E	.	.	.	.	.	.	.	.
8G#	.	8E)	.	8B)	.	.	.	.
8EJ)	]]	8r	.	8r	.	.	.	.
=120	=120	=120	=120	=120	=120	=120	=120	=120
(4EE	.	(4F#	.	(4A	.	4r	.	viio(2)
8DD#)	.	8BB)	.	8F#)	.	4b	.	V65
8r	.	8r	.	8r	.	.	.	.
(4EE	.	(4F#	.	(4A	.	4b	.	V65(4)
8DD#)	.	8BB)	.	8F#)	.	8bL	.	V65
8r	.	8r	.	8r	.	8bJ	.	.
=121	=121	=121	=121	=121	=121	=121	=121	=121
4r	.	(4F#	.	(4A	.	2bb	.	V7
4BBB	.	8D#)	.	8F#)	.	.	.	.
.	.	8r	.	8r	.	.	.	.
4BBB	.	(4C#	.	(4B	.	2r	.	.
8BBBL	.	8D#)	.	8A)	.	.	.	.
8BBBJ	.	8r	.	8r	.	.	.	.
=122	=122	=122	=122	=122	=122	=122	=122	=122
2EE	.	(4D#	.	(4A	.	4r	.	I(74)
.	.	8E)	.	8G#)	.	8bL	.	I
.	.	8r	.	8r	.	8bJ	.	.
4r	.	(4C#	.	(4B 4g#	.	2bb	.	V7
8BBBL	.	8D#)	.	8A) 8f#	.	.	.	.
8BBBJ	.	8r	.	8r	.	.	.	.
=123	=123	=123	=123	=123	=123	=123	=123	=123
2EE	.	(4D#	.	(4A	.	4r	.	I(74)
.	.	8E)	.	8G#)	.	8bL	.	I
.	.	8r	.	8r	.	8bJ	.	.
4r	.	(4C#	.	(4B 4g#	.	2bb	.	V7
8BBBL	.	8D#)	.	8A) 8f#	.	.	.	.
8BBBJ	.	8r	.	8r	.	.	.	.
=124	=124	=124	=124	=124	=124	=124	=124	=124
4DD	.	(4BB	.	(4A	.	4r	.	ii.#viio64(2)
8BBBL	.	8D)	.	8G#)	.	4r	.	#viio6
8BBBJ	.	8r	.	8r	.	.	.	.
4DD	.	(4BB	.	(4A	.	4r	.	#viio64(2)
8BBBL	.	8D)	.	8G#)	.	8eeL	.	V43
8BBBJ	.	8r	.	8r	.	8eeJ	.	.
=125	=125	=125	=125	=125	=125	=125	=125	=125
4AAA	.	(4CX	.	(4B	.	(2ee	<	V(4)
4EE	.	8E)	.	8A)	.	.	.	.
.	.	8r	.	8r	.	.	.	.
4EE	.	(4C	.	(4B	.	[2eee)	.	V(4)
8EEL	.	8E)	.	8A)	.	.	.	.
8EEJ	.	8r	.	8r	.	.	.	.
=126	=126	=126	=126	=126	=126	=126	=126	=126
4AA	.	(4CX	.	(4B	.	(4eee]	.	i(9)
4E	.	8E)	.	8A)	.	8dddL	.	V7(4)
.	.	8r	.	8r	.	8cccXJ	[ >	.
4E	.	(4C	.	(4B	.	8bbL	.	V(+6)
.	.	.	.	.	.	8aa	.	.
8EL	.	8E)	.	8A)	.	8ccc	.	V(64)
8EJ	.	8r	.	8r	.	8aaJ)	]]	.
=127	=127	=127	=127	=127	=127	=127	=127	=127
(2E	<	(4CX	.	(4B	.	4ee	.	i6(2)
.	.	8E)	.	8A)	.	4r	.	i64
.	.	8r	.	8r	.	.	.	.
[2e)	.	(4C	.	(4B	.	2r	.	i64
.	.	8E)	.	8A)	.	.	.	.
.	.	8r	.	8r	.	.	.	.
=128	=128	=128	=128	=128	=128	=128	=128	=128
4e]	.	(4CX	.	(4B	.	4r	.	i6(2)
8dL	.	8E)	.	8A)	.	4ee	.	V7(4)
8cXJ	[ >	8r	.	8r	.	.	.	.
8BL	.	(4C	.	(4e	.	4ee	.	i6
8A	.	.	.	.	.	.	.	.
8c	.	8E)	.	8A)	.	8eeL	.	i64
8AJ	]]	8r	.	8r	.	8eeJ	.	.
=129	=129	=129	=129	=129	=129	=129	=129	=129
4E'	.	(4C#	.	(4B	.	2aa	.	V6
4A	.	8E)	.	8A)	.	.	.	.
.	.	8r	.	8r	.	.	.	.
4A	.	(4C#	.	(4B	.	2r	.	V6
8AL	.	8E)	.	8A)	.	.	.	.
8AJ	.	8r	.	8r	.	.	.	.
=130	=130	=130	=130	=130	=130	=130	=130	=130
!LO:TX:b:i:t=dim.	!	!LO:TX:b:i:t=dim.	!	!LO:TX:b:i:t=dim.	!	!	!	!
2c#	.	(4AA	.	(4B	.	4r	.	V(9)
!	!	!	!	!	!	!LO:TX:b:i:t=dim.	!	!
.	.	8E)	.	8A)	.	8eeL	.	V
.	.	8r	.	8r	.	8eeJ	.	.
4r	.	(4C#	.	(4B	.	2aa	.	V
8AL	.	8E)	.	8A)	.	.	.	.
8AJ	.	8r	.	8r	.	.	.	.
=131	=131	=131	=131	=131	=131	=131	=131	=131
!	!LO:DY:a	!	!LO:DY:a	!	!	!	!	!
4c#	pp pp	(4AA	pp	(4A	.	4r	pp	V
8AL	.	8C#)	.	8E)	.	4ee	.	V6
8AJ	.	8r	.	8r	.	.	.	.
4cX	.	(4AA	.	(4A	.	4ee	.	I.ii
8AL	.	8CX)	.	8E)	.	8eeL	.	ii6
8AJ	.	8r	.	8r	.	8eeJ	.	.
=132	=132	=132	=132	=132	=132	=132	=132	=132
!LO:TX:b:i:t=cresc.	!	!LO:TX:b:i:t=cresc.	!	!LO:TX:b:i:t=cresc.	!	!LO:TX:b:i:t=cresc.	!	!
[1cX	.	(4AA	.	(4e	.	(2ee	.	ii
.	.	8CX)	.	8cX)	.	.	.	.
.	.	8r	.	8r	.	.	.	.
.	.	(4AA	.	(4c	.	[2eee)	.	V7
.	.	8D)	.	8F#)	.	.	.	.
.	.	8r	.	8r	.	.	.	.
=133	=133	=133	=133	=133	=133	=133	=133	=133
2.c]	.	(4D	.	(4ccX	.	(4eee]	.	.
.	.	8A)	.	8f#)	.	8dddL	.	V43
.	.	8r	.	8r	.	8cccXJ	.	.
.	.	(8DL	.	(8ccL	.	8bbL	.	V7(6)
!	!	!LO:TX:a:i:t=non ligato	!	!LO:TX:a:i:t=non ligato	!	!	!	!
.	.	8cXJ)	.	8dJ)	.	8aa	.	V2
!LO:TX:a:i:t=non ligato	!	!	!	!	!	!	!	!
16BLL	.	16dLL	.	16eLL	.	8ggX	.	I6
16cX	.	16e	.	16d	.	.	.	.
16B	.	16d	.	16e	.	8aaJ	.	I6(+62)
16AJJ	.	16B#XJJ	.	16f#JJ	.	.	.	.
=134||	=134||	=134||	=134||	=134||	=134||	=134||	=134||	=134||
*k[f#]	*	*k[f#]	*	*k[f#]	*	*k[f#]	*	*
*G:	*	*G:	*	*G:	*	*G:	*	*
!	!LO:DY:a	!	!LO:DY:a	!	!	!	!	!
16GLL	f f	16BLL	f	16gLL	.	4bb')	f	I
16A	.	16c	.	16f#	.	.	.	.
16G	.	16B	.	16g	.	.	.	.
16F#JJ	.	16AJJ	.	16aJJ	.	.	.	.
16ELL	.	16GLL	.	16bLL	.	4gg	.	vi
16F#	.	16A	.	16a	.	.	.	.
16E	.	16G	.	16b	.	.	.	.
16DJJ	.	16F#JJ	.	16ccJJ	.	.	.	.
16CLL	.	16ELL	.	16ddLL	.	4gg	.	IV
16D	.	16F#	.	16cc	.	.	.	.
16C	.	16E	.	16dd	.	.	.	.
16BBJJ	.	16DJJ	.	16eeJJ	.	.	.	.
16AALL	.	16CLL	.	16ff#LL	.	8ggL	.	ii7
16BB	.	16D	.	16ee	.	.	.	.
16AA	.	16C	.	16ff#	.	8ggJ	.	.
16GGJJ	.	16BBJJ	.	16ggJJ	.	.	.	.
=135	=135	=135	=135	=135	=135	=135	=135	=135
!	!LO:DY:a	!	!	!	!	!	!	!
!	!LO:DY:a	!	!	!	!	!	!	!
16GGLL	p f f p	16AALL	.	2.aa	p f	2.ccc	p f	V43
16FF#	.	16A	.	.	.	.	.	.
16GG	.	16G	.	.	.	.	.	.
16C#JJ	.	16AJJ	.	.	.	.	.	.
16DLL	.	16F#LL	.	.	.	.	.	.
16E	.	16A	.	.	.	.	.	.
16F#	.	16d	.	.	.	.	.	.
16GJJ	.	16eJJ	.	.	.	.	.	.
*clefC4	*	*	*	*	*	*	*	*
16ALL	.	16f#LL	.	.	.	.	.	.
16G#	.	16e	.	.	.	.	.	.
16A	.	16f#	.	.	.	.	.	.
16BJJ	.	16gJJ	.	.	.	.	.	.
16cXLL	.	16aLL	.	16f#LL	.	4r	.	V2
16d	.	16b	.	16e	.	.	.	.
16c	.	16a	.	16f#	.	.	.	.
16BJJ	.	16gJJ	.	16gJJ	.	.	.	.
=136	=136	=136	=136	=136	=136	=136	=136	=136
16ALL	.	16f#LL	.	16aLL	.	4r	.	V43
16B	.	16g	.	16g	.	.	.	.
16A	.	16f#	.	16a	.	.	.	.
16GXJJ	.	16eJJ	.	16bJJ	.	.	.	.
*clefF4	*	*	*	*	*	*	*	*
16F#LL	.	16dLL	.	16ccLL	.	4aa	.	V65
16G	.	16e	.	16b	.	.	.	.
16F#	.	16d	.	16cc	.	.	.	.
16EJJ	.	16cJJ	.	16ddJJ	.	.	.	.
16DLL	.	16BLL	.	16eeLL	.	4aa	.	V7
16E	.	16c	.	16dd	.	.	.	.
16D	.	16B	.	16ee	.	.	.	.
16CJJ	.	16AJJ	.	16ff#JJ	.	.	.	.
16BBLL	.	16GLL	.	16ggLL	.	8aaL	.	I6(+2)
16C	.	16A	.	16ff#	.	.	.	.
16BB	.	16G	.	16gg	.	8aaJ	.	.
16AAJJ	.	16F#JJ	.	16aaJJ	.	.	.	.
=137	=137	=137	=137	=137	=137	=137	=137	=137
16AALL	p	16CLL	p	2.bb	p	2.ddd	p	I6
16GG	.	16BB	.	.	.	.	.	.
16FF#	.	16AA	.	.	.	.	.	.
16GGJJ	.	16BBJJ	.	.	.	.	.	.
16BBLL	.	16DLL	.	.	.	.	.	.
16D	.	16G	.	.	.	.	.	.
16G	.	16B	.	.	.	.	.	.
16BJJ	.	16dJJ	.	.	.	.	.	.
16dLL	.	16BLL	.	.	.	.	.	.
16e	.	16c	.	.	.	.	.	.
16d	.	16B	.	.	.	.	.	.
!LO:TX:b:i:t=cresc.	!	!LO:TX:b:i:t=cresc.	!	!	!	!	!	!
16cJJ	.	16AJJ	.	.	.	.	.	.
!	!	!	!	!LO:TX:b:i:t=cresc.	!	!LO:TX:b:i:t=cresc.	!	!
16BLL	.	16dLL	.	16ggLL	.	16dddLL	.	.
16c	.	16d	.	16ff#	.	16eee	.	.
16B	.	16e	.	16gg	.	16ddd	.	.
16AJJ	.	16f#JJ	.	16aaJJ	.	16cccJJ	.	.
=138	=138	=138	=138	=138	=138	=138	=138	=138
16GLL	.	16gLL	.	16ddLL	.	16bbLL	.	I
16FF#	.	16AA	.	16ccc	.	16eee	.	.
16GG	.	16BB	.	16bb	.	16ddd	.	.
16AAJJ	.	16CJJ	.	16aaJJ	.	16cccJJ	.	.
16BBLL	.	16DLL	.	16ggLL	.	16bbLL	.	.
16C	.	16E	.	16ff#	.	16aa	.	.
16D	.	16F#	.	16ee	.	16gg	.	.
16EJJ	.	16GJJ	.	16ddJJ	.	16ff#JJ	.	.
16F#LL	.	16ALL	.	16ccLL	.	16eeLL	.	.
16G	.	16B	.	16b	.	16dd	.	.
16A	.	16c	.	16a	.	16dd	.	.
16BJJ	.	16dJJ	.	16gJJ	.	16ddJJ	.	.
8cL	.	8aL	.	8f#L	.	8ddL	.	V2
8BJ	.	8bJ	.	8gJ	.	8ddJ	.	I6
=139	=139	=139	=139	=139	=139	=139	=139	=139
!LO:TX:a:i:t=ten.	!	!LO:TX:a:i:t=ten.	!	!LO:TX:a:i:t=ten.	!	!LO:TX:a:i:t=ten.	!	!
4d	f	4a	f	4f#	f	4dd	f	V
8d'L	.	8a'L	.	8fX'L	.	8dd'L	.	v
8c'J	.	8e'J	.	8a'J	.	8ee'J	.	ii6
4e	.	4b	.	8g#'L	.	4ee	.	vi
.	.	.	.	8gX'	.	.	.	.
4r	.	8e'L	.	8b-X'	.	8dd-X'L	.	#viio7/bVII
.	.	8fX'J	.	8b-'J	.	8cc'J	.	.bVII(4)
=140	=140	=140	=140	=140	=140	=140	=140	=140
8d'L	f	4fX	f	8b-X'L	f	4ffX	f	.bVII64
8c'J	.	.	.	8a'J	.	.	.	.
8r	.	8f#'L	.	8a'L	.	8ee-X'L	.	#viio7
8B	.	8g'J	.	8b'J	.	8dd'J	.	I6
8d'L	.	[4g	.	16bLL	.	16ggLL	.	.
.	.	.	.	16cc	.	16aa	.	.
8B'J	.	.	.	16dd	.	16gg	.	.
.	.	.	.	16ddJJ	.	16ffJJ	.	.
4c	.	16gLL]	.	16ccLL	.	16eeLL	.	IV
.	.	16a	.	16dd	.	16ff	.	.
.	.	16g	.	16cc	.	16ee	.	.
.	.	16fXJJ	.	16aJJ	.	16ddJJ	.	.
=141	=141	=141	=141	=141	=141	=141	=141	=141
!	!LO:DY:a	!	!	!	!	!	!	!
4r	f	16eLL	.	16gLL	.	16ccLL	.	IV-IV.I6
.	.	16fX	.	16a	.	16dd	.	.
.	.	16e	.	16g	.	16cc	.	.
.	.	16dJJ	.	16fXJJ	.	16bJJ	.	.
!LO:TX:a:i:t=ben marcato	!	!	!	!	!	!	!	!
4C	.	16cLL	.	16eLL	.	16aLL	.	.
.	.	16d	.	16f	.	16b	.	.
.	.	16c	.	16e	.	16a	.	.
.	.	16BJJ	.	16dJJ	.	16gJJ	.	.
4C	.	16ALL	.	16cLL	.	16fXLL	.	.
.	.	16B	.	16d	.	16g	.	.
.	.	16A	.	16c	.	16f	.	.
.	.	16GJJ	.	16BJJ	.	16eJJ	.	.
8CL	.	16FXLL	.	16ALL	.	16dLL	.	.
.	.	16E	.	16G	.	16e	.	.
8CJ	.	16F	.	16A	.	16d	.	.
.	.	16EJJ	.	16GJJ	.	16cJJ	.	.
=142	=142	=142	=142	=142	=142	=142	=142	=142
!	!	!	!LO:DY:a	!	!LO:DY:a	!	!	!
!	!	!	!LO:DY:a	!	!LO:DY:a	!	!	!
2.GG#	p	2.C 2.E	p f p	2.G# 2.c	p f	(16cLL	.	#vii+/vi
.	.	.	.	.	.	16E	.	.
.	.	.	.	.	.	16c	.	.
.	.	.	.	.	.	16eJJ	.	.
.	.	.	.	.	.	16ccLL	.	.
.	.	.	.	.	.	16e	.	.
.	.	.	.	.	.	16cc	.	.
.	.	.	.	.	.	16eeJJ	.	.
.	.	.	.	.	.	16ccLL	.	.
.	.	.	.	.	.	16ee	.	.
.	.	.	.	.	.	16ccc	.	.
.	.	.	.	.	.	16eeJJ	.	.
4r	.	4r	.	16eeLL	.	8ccc'L)	.	.
!	!	!	!	!LO:TX:b:i:t=non ligato	!	!	!	!
.	.	.	.	16ffX	.	.	.	.
.	.	.	.	16ee	.	[8cccJ	.	.
.	.	.	.	16ddJJ	.	.	.	.
=143	=143	=143	=143	=143	=143	=143	=143	=143
!	!	!	!	!	!	!LO:TX:b:i:t=non ligato	!	!
4r	f	16eLL	f	16ccLL	.	16cccLL]	.	I
!	!	!LO:TX:b:i:t=non ligato	!	!	!	!	!	!
.	.	16fX	.	16a	.	16ddd	.	.
.	.	16e	.	16gX	.	16ccc	.	.
.	.	16dJJ	.	16fXJJ	.	16bbJJ	.	.
4C	.	16cLL	.	16eLL	.	16aaLL	.	.
.	.	16d	.	16f	.	16bb	.	.
.	.	16c	.	16e	.	16aa	.	.
.	.	16BJJ	.	16dJJ	.	16ggJJ	.	.
4C	.	16ALL	.	16cLL	.	16ffXLL	.	.
.	.	16B	.	16d	.	16gg	.	.
.	.	16A	.	16c	.	16ff	.	.
.	.	16GJJ	.	16BJJ	.	16eeJJ	.	.
8CL	.	16FXLL	.	16ALL	.	16ddLL	.	.
.	.	16E	.	16GX	.	16ee	.	.
8CJ	.	16F	.	16A	.	16dd	.	.
.	.	16EJJ	.	16GJJ	.	16ccJJ	.	.
=144	=144	=144	=144	=144	=144	=144	=144	=144
2.FF#	p	(2.E-X	p	(2.A	p	(16cLL	p	#viio7/V
.	.	.	.	.	.	16A	.	.
.	.	.	.	.	.	16F#	.	.
.	.	.	.	.	.	16AJJ	.	.
.	.	.	.	.	.	16cLL	.	.
.	.	.	.	.	.	16e-X	.	.
.	.	.	.	.	.	16f#	.	.
.	.	.	.	.	.	16aJJ	.	.
.	.	.	.	.	.	16ccLL	.	.
.	.	.	.	.	.	16ee-X	.	.
.	.	.	.	.	.	16dd	.	.
!	!	!	!	!	!	!LO:TX:b:i:t=cresc.	!	!
.	.	.	.	.	.	16ccJJ)	.	.
!LO:TX:b:i:t=cresc.	!	!LO:TX:b:i:t=cresc.	!	!LO:TX:b:i:t=cresc.	!	!	!	!
[4FFX	.	4D)	.	8A-XL	.	(16ccLL	.	V2(4b2)
.	.	.	.	.	.	16b	.	.
.	.	.	.	8GJ)	.	16dd	.	V2
.	.	.	.	.	.	16bJJ)	.	.
=145	=145	=145	=145	=145	=145	=145	=145	=145
2FF]	.	2D	.	2G 2d	.	(16ddLL	.	.
.	.	.	.	.	.	16ee	.	.
.	.	.	.	.	.	16ffX	.	.
.	.	.	.	.	.	16ggJJ	.	.
.	.	.	.	.	.	16aaLL	.	.
.	.	.	.	.	.	16bb	.	.
.	.	.	.	.	.	16ccc	.	.
.	.	.	.	.	.	16dddJJ)	.	.
!LO:TX:b:i:t=ten.	!	!LO:TX:b:i:t=ten.	!	!LO:TX:a:i:t=ten.	!	!	!	!
4EE	.	4E	.	4G 4c	.	8eee'L	.	I6
.	.	.	.	.	.	8fffX'	.	.
8DD'L	.	8D'L	.	8FX'L 8c	.	8ggg'	.	ii7(+4)
8CC'J	.	8C'J	.	8E'J 8c	.	8ggg#'J	.	I+
=146	=146	=146	=146	=146	=146	=146	=146	=146
4FFX	.	4FX	.	4A 4c	.	8aaaL	.	IV
.	.	.	.	.	.	(16aL	.	.
.	.	.	.	.	.	16bJJ	.	.
8EE'L	.	8E'L	.	8G'L 8c	.	16ccLL	.	I6
.	.	.	.	.	.	16dd	.	.
8DD'J	.	8D'J	.	8FX'J 8c	.	16ee	.	ii7
.	.	.	.	.	.	16ffXJJ)	.	.
4GG	.	4D	.	4F 4B	.	(16ffLL	.	V[viio6
.	.	.	.	.	.	16ee	.	.
.	.	.	.	.	.	16ff	.	.
.	.	.	.	.	.	16ggJJ	.	.
4GG	.	8C'L	.	8F#'L	.	16aaLL	.	viio64/V
.	.	.	.	.	.	16bb	.	.
.	.	8D'J	.	8FX'J	.	16ccc	.	viio6]
.	.	.	.	.	.	16dddJJ)	.	.
=147	=147	=147	=147	=147	=147	=147	=147	=147
!	!LO:DY:a	!	!LO:DY:a	!	!	!	!	!
4CC	f f	4C	f	4E	.	(16eeeLL	f	I
.	.	.	.	.	.	16ddd	.	.
.	.	.	.	.	.	16ccc	.	.
.	.	.	.	.	.	16bbJJ	.	.
4r	.	4r	.	4r	.	16cccLL	.	.
.	.	.	.	.	.	16ddd	.	.
.	.	.	.	.	.	16eee	.	.
.	.	.	.	.	.	16fffXJJ)	.	.
4r	.	(16BLL	.	(16ddLL	.	8ggg'L	.	V6
.	.	16A	.	16cc	.	.	.	.
.	.	16G	.	16b	.	(16ggL	.	.
.	.	16F#JJ	.	16aJJ	.	16aaJJ	.	.
8r	.	16GLL	.	16bLL	.	16ggLL	.	V
.	.	16A	.	16cc	.	16ffX	.	.
8CC	.	16B	.	16dd	.	16ee	.	I
.	.	16cJJ)	.	16eeJJ)	.	16ddJJ)	.	.
=148	=148	=148	=148	=148	=148	=148	=148	=148
4CC	.	4c	.	4ee	.	(16eeLL	.	.
.	.	.	.	.	.	16dd	.	.
.	.	.	.	.	.	16cc	.	.
.	.	.	.	.	.	16bJJ	.	.
4r	.	4r	.	4r	.	16ccLL	.	.
.	.	.	.	.	.	16dd	.	.
.	.	.	.	.	.	16ee	.	.
.	.	.	.	.	.	16ffXJJ)	.	.
4r	.	(16BLL	.	(16ddLL	.	8gg'L	.	V6
.	.	16A	.	16cc	.	.	.	.
.	.	16G	.	16b	.	(16ggL	.	.
.	.	16F#JJ	.	16aJJ	.	16aaJJ	.	.
8r	.	16GLL	.	16bLL	.	16ggLL	.	V
.	.	16A	.	16cc	.	16ff	.	.
8CC	.	16B	.	16dd	.	16ee	.	I
.	.	16cJJ)	.	16eeJJ)	.	16ddJJ)	.	.
=149	=149	=149	=149	=149	=149	=149	=149	=149
8CC'L	f	4c	f	8ee'	f	8ee'L	f	.
8DD'	.	.	.	8fX'L	.	(16bL	.	viio6
.	.	.	.	.	.	16ddJJ	.	.
8EE'	.	4r	.	8g'J	.	8cc')	.	I6
!LO:TX:b:i:t=dim.	!	!	!	!	!	!LO:TX:b:i:t=dim.	!	!
8D#XJ	.	.	.	(16f#LL	.	8cL	.	#viio7/iii
.	.	.	.	16aJJ	.	.	.	.
!	!	!LO:TX:b:i:t=dim.	!	!	!	!	!	!
8EL	.	8r	.	8g')	.	8cJ	.	I6
8B	.	(16dLL	.	8r	.	8r	.	viio
.	.	16fXJJ	.	.	.	.	.	.
8cJ	.	8e'L)	.	8r	.	8r	.	I
(16BLL	>	8g'J	.	(16gLL	>	(16ddLL	.	V65
16dJJ	]]	.	.	16dJJ	]]	16ffXJJ)	.	.
=150	=150	=150	=150	=150	=150	=150	=150	=150
4c)	p	4g	p	4e-X)	p	(16ee-XLL	p	iv.i
.	.	.	.	.	.	16dd	.	.
.	.	.	.	.	.	16cc	.	.
.	.	.	.	.	.	16bJJ	.	.
4r	.	4r	.	4r	.	16ccLL	.	.
.	.	.	.	.	.	16dd	.	.
.	.	.	.	.	.	16ee-	.	.
.	.	.	.	.	.	16ffXJJ)	.	.
4r	.	(16BLL	.	(16dLL	.	8gg'L	.	V6
.	.	16A	.	16c	.	.	.	.
.	.	16G	.	16B	.	(16ggL	.	.
.	.	16BJJ	.	16cJJ	.	16aa-XJJ	.	.
8GL	.	16dLL	.	16fXLL	.	16ggLL	.	V7
.	.	16B	.	16d	.	16ff	.	.
8GJ	.	16c	.	16e-	.	16ee-	.	.
.	.	16dJJ)	.	16fJJ)	.	16ddJJ)	.	.
=151	=151	=151	=151	=151	=151	=151	=151	=151
4c	.	(16e-XLL	.	4g	.	4cc	.	i
.	.	16d	.	.	.	.	.	.
.	.	16c	.	.	.	.	.	.
.	.	16BJJ	.	.	.	.	.	.
4r	.	16cLL	.	4r	.	4r	.	.
.	.	16d	.	.	.	.	.	.
.	.	16e-	.	.	.	.	.	.
.	.	16fXJJ)	.	.	.	.	.	.
4r	.	(16BLL	.	(16dLL	.	8gg'L	.	V6
.	.	16A	.	16c	.	.	.	.
.	.	16G	.	16B	.	(16ggL	.	.
.	.	16BJJ	.	16dJJ	.	16aa-XJJ	.	.
8GG'L	.	16dLL	.	16fXLL	.	16ggLL	.	V65
.	.	16B	.	16d	.	16ffX	.	.
8GG'J	.	16c	.	16e-X	.	16ee-X	.	.
.	.	16dJJ)	.	16fJJ)	.	16ddJJ)	.	.
=152	=152	=152	=152	=152	=152	=152	=152	=152
!LO:TX:b:i:t=cresc.	!	!LO:TX:b:i:t=cresc.	!	!LO:TX:b:i:t=cresc.	!	!LO:TX:b:i:t=cresc.	!	!
8CC'L	.	8c'L	.	8g'L	.	8ee-X'L	.	i
8DD'	.	8FX'	.	8B'	.	(16ee-L	.	#viio6
.	.	.	.	.	.	16ffXJJ	.	.
8EE-X'	.	8G'	.	8c'	.	16ee-LL	.	i6
.	.	.	.	.	.	16dd	.	.
8EE'J	.	8G'J	.	8c'J	.	16cc	.	V65/IV
.	.	.	.	.	.	16b-XJJ)	.	.
8FFX'L	.	8A'L	.	8c'L	.	8a'L	.	IV
8GG'J	.	8E'	.	8c'	.	(16aL	.	V43/IV
.	.	.	.	.	.	16b-JJ	.	.
8FF'L	.	8F'	.	8c'	.	16aLL	.	IV
.	.	.	.	.	.	16g	.	.
(16FFL	.	8F'J	.	8A'J	.	16fX	.	.
16EE-XJJ	.	.	.	.	.	16ccJJ)	.	V2/bVII
=153	=153	=153	=153	=153	=153	=153	=153	=153
!	!	!	!LO:DY:a	!	!	!	!	!
16DDLL	f	4FX	f f	4B-X	.	4dd	f	.bIII.I6
16CC	.	.	.	.	.	.	.	.
16BBB-X	.	.	.	.	.	.	.	.
16AAAJJ	.	.	.	.	.	.	.	.
16BBB-LL	.	4r	.	4r	.	4r	.	I
16CC	.	.	.	.	.	.	.	.
16DD	.	.	.	.	.	.	.	.
16EE-XJJ)	.	.	.	.	.	.	.	.
8FFX'	.	8F'L	.	(16ALL	.	(16ccLL	.	V
.	.	.	.	16G	.	16b-X	.	.
8r	.	(16FL	.	16FX	.	16a	.	.
.	.	16GJJ	.	16EJJ	.	16gJJ	.	#viio/V
8r	.	16FLL	.	16FLL	.	16aLL	.	V
.	.	16E-X	.	16G	.	16b-	.	IV
(16FFLL	.	16D	.	16A	.	16cc	.	iii65
16EE-JJ	.	16CJJ)	.	16B-JJ)	.	16ddJJ)	.	V65(+2)/V
=154	=154	=154	=154	=154	=154	=154	=154	=154
16DDLL	.	4BB-X	.	4b-X	.	4dd	.	I6
16CC	.	.	.	.	.	.	.	.
16BBB-X	.	.	.	.	.	.	.	.
16AAAJJ	.	.	.	.	.	.	.	.
16BBB-LL	.	(16e-XLL	.	4r	.	4r	.	.
16CC	.	16d	.	.	.	.	.	.
16DD	.	16c	.	.	.	.	.	.
16EE-XJJ)	.	16B-XJJ)	.	.	.	.	.	.
8FFX'	.	4A'	.	(16aLL	.	(16aaLL	.	V7
.	.	.	.	16b-	.	16gg	.	.
(16FXLL	.	.	.	16a	.	16ffX	.	.
16GJJ	.	.	.	16gJJ	.	16eeJJ	.	.
16FLL	.	(16dLL	.	16aLL	.	16ffLL	.	.
16E-X	.	16c	.	16b-	.	16gg	.	.
16D	.	16B-	.	16cc	.	16aa	.	.
16CJJ)	.	16AJJ)	.	16ddJJ)	.	16bb-XJJ)	.	.
=155	=155	=155	=155	=155	=155	=155	=155	=155
8D'L	.	4B-X'	.	8dd'L	.	8bb-X'L	.	I6
(16DL	.	.	.	(16b-XL	.	(16ggL	.	.
16E-XJJ	.	.	.	16aJJ	.	16ff#JJ	.	.
16DLL	.	(16B-LL	.	16b-LL	.	16ggLL	.	.
16C	.	16A	.	16cc	.	16aa	.	.
16BB-X	.	16G	.	16dd)	.	16bb-	.	.
16AAJJ)	.	16FXJJ)	.	16dd'JJ	.	16cccJJ)	.	iii43
8GG'	.	8E'L	.	8ee'	.	8ccc'L	.	V64/V
(16CLL	.	(16cL	.	(16cLL	.	(16ccL	.	.
16DJJ	.	16dJJ	.	16BJJ	.	16bJJ	.	.
16CLL	.	16cLL	.	16cLL	.	16ccLL	.	V/V
16BB-	.	16B-	.	16d	.	16dd	.	.
16AA	.	16A	.	16e	.	16ee	.	.
16GGJJ)	.	16GJJ)	.	16fXJJ)	.	16ffXJJ)	.	.
=156	=156	=156	=156	=156	=156	=156	=156	=156
!	!LO:DY:a	!	!	!	!	!	!	!
8FFX'L	f f	8FX'L	.	4fX	f	4ffX'	f	V
8c'	.	8cc'	.	.	.	.	.	.
!	!LO:DY:a	!	!LO:DY:a	!	!	!	!	!
8A'	sf	8a'	sf	4r	.	4ccc'	.	.
8FX'J	.	8fX'J	.	.	.	.	.	.
8E-X'L	.	8e-X'L	.	2r	.	[2fffX	sf	V7
8C'	.	8c'	.	.	.	.	.	.
8AA'	.	8A'	.	.	.	.	.	.
8FF'J	.	8F'J	.	.	.	.	.	.
=157	=157	=157	=157	=157	=157	=157	=157	=157
8EE-XL	f	8E-XL	f	4b-X'	f	1fff_	f	#viio/V
8DD	.	8D	.	.	.	.	.	.
8FFX	.	8FX	.	4fX'	.	.	.	.
8BB-XJ	.	8B-XJ	.	.	.	.	.	.
8DL	.	8dL	.	2B-X	.	.	.	.
8FX	.	8fX	.	.	.	.	.	.
8B-X	.	8b-X	.	.	.	.	.	.
8EJ	.	8eJ	.	.	.	.	.	.
=158	=158	=158	=158	=158	=158	=158	=158	=158
!	!LO:DY:a	!	!LO:DY:a	!	!	!	!	!
4FFX'	f f	4FX'	f	8A'L	.	8fff'L]	f	V
.	.	.	.	8cc'	.	8ccc'	.	.
4C'	.	4c'	.	8a'	.	8aa'	.	.
.	.	.	.	8fX'J	.	8ffX'J	.	.
2FX	sf	2fX	sf	8e-XL	.	8ee-XL	.	V7
.	.	.	.	8c	.	8cc	.	.
.	.	.	.	8A	.	8a	.	.
.	.	.	.	8FXJ	.	8fXJ	.	.
=159	=159	=159	=159	=159	=159	=159	=159	=159
8EE-XL	f	8E-XL	f	8e-XL	f	8e-XL	f	I6
8DD	.	8D	.	8d	.	8d	.	.
8FFX	.	8FX	.	8fX	.	8fX	.	.
8BB-XJ	.	8B-XJ	.	8b-XJ	.	8b-XJ	.	.
8DL	.	8dL	.	8dL	.	8ddL	.	.
8FX	.	8fX	.	8f	.	8ffX	.	.
8B-X	.	8b-X	.	8b-	.	8bb-X	.	.
8DJ	.	8dJ	.	8ddJ	.	8dddJ	.	.
=160	=160	=160	=160	=160	=160	=160	=160	=160
!LO:TX:b:i:t=dim.	!	!	!	!	!	!	!	!
8FX	.	4fX	.	4ffX	.	4fffX	.	V
8r	.	.	.	.	.	.	.	.
!	!	!LO:TX:b:i:t=dim.	!	!	!	!	!	!
8G	.	8E	.	4r	.	4r	.	#viio/V
8r	.	8r	.	.	.	.	.	.
!	!	!	!	!LO:TX:b:i:t=dim.	!	!	!	!
8A	.	8E-X	.	8FX	.	4r	.	V2
8r	.	8r	.	8r	.	.	.	.
!	!	!	!	!	!	!LO:TX:b:i:t=dim.	!	!
8B-X	.	8D	.	8F	.	8G	.	I6(+6)
8r	.	8r	.	8r	.	8r	.	.
=161	=161	=161	=161	=161	=161	=161	=161	=161
!	!	!	!LO:DY:a	!	!LO:DY:a	!	!	!
8B	p	8D-X	p p	8FX	p	8A-X	.	.bVII.Ger6
8r	.	8r	.	8r	.	8r	.	.
8c	.	8C	.	8F	.	8A	.	V(64)
8r	.	8r	.	8r	.	8r	.	.
8d	.	8BB	.	8F	.	8B	.	#viio/V
8r	.	8r	.	8r	.	8r	.	.
8e-X	.	8BB-X	.	8G-	.	8c	.	ii%2
8r	.	8r	.	8r	.	8r	.	.
=162||	=162||	=162||	=162||	=162||	=162||	=162||	=162||	=162||
*k[b-]	*	*k[b-]	*	*k[b-]	*	*k[b-]	*	*
*F:	*	*F:	*	*F:	*	*F:	*	*
2.e-X	.	2.AA	.	2.G-	.	2.c	.	viio7
!	!	!LO:TX:b:i:t=sotto voce	!	!	!	!	!	!
4r	.	(16FLL	.	4r	.	4r	.	.
.	.	16G	.	.	.	.	.	.
.	.	16F	.	.	.	.	.	.
.	.	16E-XJJ)	.	.	.	.	.	.
=163	=163	=163	=163	=163	=163	=163	=163	=163
1r	.	2.D	.	1r	.	1r	.	I6
.	.	(16DLL	.	.	.	.	.	.
.	.	16E-X	.	.	.	.	.	.
.	.	16D	.	.	.	.	.	.
.	.	16CJJ)	.	.	.	.	.	.
=164	=164	=164	=164	=164	=164	=164	=164	=164
(2F	.	[1BB-	.	2r	.	(2d	<	I[I64
2G-	.	.	.	(2d	<[	2b-)	[[	I+6
=165	=165	=165	=165	=165	=165	=165	=165	=165
2GX)	.	1BB-_	.	2e-X	p	(4a'	p <	IV64
.	.	.	.	.	.	4g'	.	.
(4A-X'	.	.	.	4c	.	4f'	.	v6
4A')	.	.	.	[4F) 4c	.	4e-X')	[[	V7
=166	=166	=166	=166	=166	=166	=166	=166	=166
2B-X	.	2BB-]	.	1F_	.	(4d	.	I64]
.	.	.	.	.	.	4.f)	.	.
8r	.	2r	.	.	.	.	.	.
(16FFLL	.	.	.	.	.	8r	.	V7
16EEJJ	.	.	.	.	.	.	.	.
16FFLL	.	.	.	.	.	4r	.	.
16GG	.	.	.	.	.	.	.	.
16FF	.	.	.	.	.	.	.	.
16EE-XJJ)	.	.	.	.	.	.	.	.
=167	=167	=167	=167	=167	=167	=167	=167	=167
[2DD	.	8r	.	1F_	.	1r	.	I6
.	.	(16FLL	.	.	.	.	.	.
.	.	16EJJ	.	.	.	.	.	.
.	.	16FLL	.	.	.	.	.	.
.	.	16G	.	.	.	.	.	.
.	.	16F	.	.	.	.	.	.
.	.	16E-XJJ)	.	.	.	.	.	.
8DDL]	.	[2D	.	.	.	.	.	.
(16DDL	.	.	.	.	.	.	.	.
16CC#JJ	.	.	.	.	.	.	.	.
16DDLL	.	.	.	.	.	.	.	.
16EE-X	.	.	.	.	.	.	.	.
16DD	.	.	.	.	.	.	.	.
16CCXJJ)	.	.	.	.	.	.	.	.
=168	=168	=168	=168	=168	=168	=168	=168	=168
2BBB-	.	8DL]	.	2F]	.	2d	.	I
.	.	(16DL	.	.	.	.	.	.
.	.	16C#JJ	.	.	.	.	.	.
.	.	16DLL	.	.	.	.	.	.
.	.	16E-X	.	.	.	.	.	.
.	.	16D	.	.	.	.	.	.
.	.	16CXJJ)	.	.	.	.	.	.
*clefC4	*	*	*	*	*	*	*	*
[2d	.	[2BB-	.	2G-	.	2b-	.	I+
=169	=169	=169	=169	=169	=169	=169	=169	=169
(2d]	.	2BB-]	.	2GX	.	(4a'	.	vi6-ii6/V
.	.	.	.	.	.	4g'	.	.
[4c	.	2C	.	(4A'	.	4f'	.	V(64)/V
8cL]	.	.	.	4G')	.	4e')	.	V/V
8B-J)	.	.	.	.	.	.	.	.
=170	=170	=170	=170	=170	=170	=170	=170	=170
(2A	.	(2C	.	(2G-	.	(2e-X	.	viio65
2B-)	.	2D)	.	2F)	.	2d)	.	I6
=171	=171	=171	=171	=171	=171	=171	=171	=171
2B-	.	2E-X	.	2GX	.	2c	.	ii65
2B-	.	2E	.	2G	.	2c	.	V65/V
=172	=172	=172	=172	=172	=172	=172	=172	=172
(4FF	.	(4F	.	2A	.	2c	.	#viio7/vi
4FF#	.	4E-X	.	.	.	.	.	.
4GG	.	2D)	.	2G	<	2B-	<	vi
4d)	<	.	.	.	.	.	.	.
=173	=173	=173	=173	=173	=173	=173	=173	=173
(2.d	.	(2.D	<	2G	.	2B-	.	vi-I.i64
.	.	.	.	2G	[[	2B-	[[	#viio7/V
4e)	[[	4C#)	[[	.	.	.	.	.
=174	=174	=174	=174	=174	=174	=174	=174	=174
!	!	!	!LO:DY:a	!	!LO:DY:a	!	!	!
2f#	p	2.D	p p	2.F#	p	2.A	.	V
*clefF4	*	*	*	*	*	*	*	*
[4DD	.	.	.	.	.	.	.	.
(16DDLL]	.	4r	.	4r	.	4r	.	V2
16EE	.	.	.	.	.	.	.	.
16DD	.	.	.	.	.	.	.	.
16CCXJJ)	.	.	.	.	.	.	.	.
=175||	=175||	=175||	=175||	=175||	=175||	=175||	=175||	=175||
*k[f#]	*	*k[f#]	*	*k[f#]	*	*k[f#]	*	*
*G:	*	*G:	*	*G:	*	*G:	*	*
2.BBB	.	1r	.	1r	.	1r	.	I6
(16BBBLL	.	.	.	.	.	.	.	.
16CC	.	.	.	.	.	.	.	.
16BBB	.	.	.	.	.	.	.	.
16AAAJJ)	.	.	.	.	.	.	.	.
=176	=176	=176	=176	=176	=176	=176	=176	=176
[1GG	.	(2BB	.	1r	.	1r	.	I[I6
.	.	2G)	.	.	.	.	.	.
=177	=177	=177	=177	=177	=177	=177	=177	=177
1GG]	.	(4F#'	.	(2A	.	1r	.	V
.	.	4E'	.	.	.	.	.	.
.	.	4D'	.	2f#)	.	.	.	.
.	.	4C')	.	.	.	.	.	.
=178	=178	=178	=178	=178	=178	=178	=178	=178
!LO:TX:b:i:t=cresc.	!	!LO:TX:b:i:t=cresc.	!	!LO:TX:b:i:t=cresc.	!	!LO:TX:b:i:t=cresc.	!	!
[2GG	.	(4BB	.	(4g	.	(2dd	.	I6
.	.	[2.D)	.	4b	.	.	.	.
8GGL]	.	.	.	4dd	.	2bb	.	I64
(16DDL	.	.	.	.	.	.	.	.
16CC#JJ	.	.	.	.	.	.	.	.
16DDLL	.	.	.	4gg)	.	.	.	.
16EE	.	.	.	.	.	.	.	.
16DD	.	.	.	.	.	.	.	.
16CCXJJ)	.	.	.	.	.	.	.	.
=179	=179	=179	=179	=179	=179	=179	=179	=179
[2BBB	.	8DL]	.	[2d	.	2.ddd	.	I6
.	.	(16DL	.	.	.	.	.	.
.	.	16C#JJ	.	.	.	.	.	.
.	.	16DLL	.	.	.	.	.	.
.	.	16E	.	.	.	.	.	.
.	.	16D	.	.	.	.	.	.
.	.	16CXJJ)	.	.	.	.	.	.
8BBBL]	.	4BB	.	8dL]	.	.	.	.
(16BBBL	.	.	.	(16dL	.	.	.	.
16AAA#XJJ	.	.	.	16c#JJ	.	.	.	.
16BBBLL	.	4r	.	16dLL	.	4fff#	.	.
16CC	.	.	.	16e	.	.	.	.
16BBB	.	.	.	16d	.	.	.	.
16AAAJJ)	.	.	.	16cXJJ)	.	.	.	.
=180	=180	=180	=180	=180	=180	=180	=180	=180
1GG	p <	2BB	p <	2B	p <	4ggg)	p <	I
.	.	.	.	.	.	[2.ddd	.	.
.	.	(4B	.	2gg	.	.	.	.
.	.	4g)	.	.	.	.	.	.
=181	=181	=181	=181	=181	=181	=181	=181	=181
[1AA	[[	(4f#'	.	(4ff#'	.	(2.ddd]	.	V/V
.	.	4e'	.	4ee'	.	.	.	.
.	.	4d'	.	4dd'	.	.	.	.
.	.	4E')	[[	4cc#')	[[	4ccc#)	[[	.
=182	=182	=182	=182	=182	=182	=182	=182	=182
(2AA]	p <	2D 2F#	p <	(2ccX	p <	(2cccX	p <	V43
2BB)	.	2D 2G	.	2b)	.	2bb)	.	I6
=183	=183	=183	=183	=183	=183	=183	=183	=183
2C	.	2E 2G	.	2a	.	2aa	.	ii65
2C#	[[	2G 2e	[[	2a	[[	2aa	[[	V65/V
=184	=184	=184	=184	=184	=184	=184	=184	=184
(2.D	p	(4.F#	p	2d	p	(4.aa	p	V
.	.	8G#	.	.	.	8bb	.	.
.	.	4A)	.	4d	.	4ccc)	.	V7
4FF#)	.	4r	.	4r	.	4r	.	V65
=185	=185	=185	=185	=185	=185	=185	=185	=185
(4.B	pp	(4.d	pp	(2.g	pp	(4.gg	pp	I6
8A	.	8c	.	.	.	8aa	.	.
4G)	.	4B)	.	.	.	4bb)	.	I
16GGLL	.	16GXLL	.	4B)	.	16r	.	.
16BB'	.	16B'	.	.	.	16b'LL	.	.
!LO:TX:b:i:t=ben marcato	!	!LO:TX:b:i:t=ben marcato	!	!	!	!LO:TX:b:i:t=ben marcato	!	!
16AA'	.	16A'	.	.	.	16a'	.	.
16GG'JJ	.	16G'JJ	.	.	.	16g'JJ	.	.
=186	=186	=186	=186	=186	=186	=186	=186	=186
4FF#	.	4F#	.	4r	.	4f#	.	V6
16r	.	16r	.	16r	.	16r	.	.
!	!	!	!	!LO:TX:b:i:t=ben marcato	!	!	!	!
16GGLL	.	16GLL	.	16GLL	.	16gLL	.	.
16FF#	.	16F#	.	16F#	.	16f#	.	.
16EEJJ	.	16EJJ	.	16EJJ	.	16eJJ	.	.
4DD	.	4D	.	4d	.	4d	.	V7
16r	.	16r	.	16r	.	16r	.	.
16DDLL	.	16F#LL	.	16dLL	.	16ccLL	.	.
16EE	.	16G	.	16d	.	16b	.	.
16FF#JJ	.	16AJJ	.	16dJJ	.	16aJJ	.	.
=187	=187	=187	=187	=187	=187	=187	=187	=187
4GG	.	4D	.	4d	.	4b	.	I
4r	.	4r	.	4r	.	4r	.	.
4r	.	4r	.	4r	.	4r	.	.
16r	.	16r	.	16r	.	16r	.	.
16GGLL	.	16GLL	.	16GLL	.	16gLL	.	.
16FF#	.	16F#	.	16F#	.	16f#	.	.
16EEJJ	.	16EJJ	.	16EJJ	.	16eJJ	.	.
=188	=188	=188	=188	=188	=188	=188	=188	=188
4DD#X	.	4D#X	.	4d#X	.	4d#X	.	V7/vi
16r	.	16r	.	16r	.	16r	.	.
16EELL	.	16ELL	.	16eLL	.	16eLL	.	.
16DD#	.	16D#	.	16d#	.	16d#	.	.
16CC#JJ	.	16C#JJ	.	16c#JJ	.	16c#JJ	.	.
4BBB	.	4BB	.	4B	.	4B	.	.
16r	.	16r	.	16r	.	16r	.	.
16BBBLL	.	16BBLL	.	16BLL	.	16aLL	.	.
16CC#	.	16BB	.	16B	.	16g	.	.
16DD#JJ	.	16BBJJ	.	16BJJ	.	16f#JJ	.	.
=189	=189	=189	=189	=189	=189	=189	=189	=189
!LO:TX:b:i:t=poco cresc.	!	!LO:TX:b:i:t=poco cresc.	!	!LO:TX:b:i:t=poco cresc.	!	!LO:TX:b:i:t=poco cresc.	!	!
4EE	.	4BB	.	4B	.	4g	.	vi
16r	.	16r	.	16r	.	16r	.	.
16EELL	.	16BBLL	.	16GLL	.	16f#LL	.	.
16FF#	.	16BB	.	16G	.	16e	.	.
16GGJJ	.	16BBJJ	.	16GJJ	.	16dJJ	.	.
4AA	.	4E	.	4G	.	4c#	.	V7/V
16r	.	16r	.	16r	.	16r	.	.
16AALL	.	16C#LL	.	16gLL	.	16bLL	.	.
16AA	.	16D	.	16f#	.	16a	.	.
16AAJJ	.	16EJJ	.	16eJJ	.	16gJJ	.	.
=190	=190	=190	=190	=190	=190	=190	=190	=190
4D	.	4F#	.	4A	.	4f#	.	V
16r	.	16r	.	16r	.	16r	.	.
16DLL	.	16F#LL	.	16aLL	.	16eeLL	.	.
16D	.	16F#	.	16a	.	16dd	.	.
16DJJ	.	16F#JJ	.	16aJJ	.	16ccXJJ	.	V7
4E	.	4G	.	4g	.	4b	.	vi
16r	.	16r	.	16r	.	16r	.	.
16ELL	.	16BLL	.	16gLL	.	16ggLL	.	.
16E	.	16B	.	16g	.	16ff#	.	.
16EJJ	.	16BJJ	.	16gJJ	.	16ggJJ	.	.
=191	=191	=191	=191	=191	=191	=191	=191	=191
4CX	pp	4e	pp	4g	pp	4a	pp	ii65
16r	.	16r	.	16r	.	16r	.	.
16CLL	.	16ALL	.	16eLL	.	16eeLL	.	.
16C	.	16A	.	16e	.	16dd#X	.	.
16CJJ	.	16AJJ	.	16eJJ	.	16eeJJ	.	.
4D	.	4A	.	4d	.	4f#	.	V
[4D	.	[4G	.	[4d	.	(16bbLL	.	I64
.	.	.	.	.	.	16ccc	.	.
.	.	.	.	.	.	16bb	.	.
.	.	.	.	.	.	16aa#XJJ	.	.
=192	=192	=192	=192	=192	=192	=192	=192	=192
(4D]	.	(2G]	.	(4d]	.	16bbLL	.	.
.	.	.	.	.	.	16ccc	.	.
.	.	.	.	.	.	16bb	.	.
.	.	.	.	.	.	16aaJJ	.	.
8GGL	.	.	.	2e	.	16ggLL	.	vi6
.	.	.	.	.	.	16aa	.	.
[8EJ)	.	.	.	.	.	16gg	.	.
.	.	.	.	.	.	16ff#JJ)	.	.
(4E]	.	2A)	.	.	.	(16ff#LL	.	V43/V
.	.	.	.	.	.	16gg	.	.
.	.	.	.	.	.	16ff#	.	.
.	.	.	.	.	.	16eeJJ	.	.
8AAL	.	.	.	[4f#)	.	16ddLL	.	V64
.	.	.	.	.	.	16ee	.	.
[8F#J)	.	.	.	.	.	16dd	.	V6
.	.	.	.	.	.	16cc#JJ	.	.
=193	=193	=193	=193	=193	=193	=193	=193	=193
!LO:TX:b:i:t=cresc.	!	!LO:TX:b:i:t=cresc.	!	!LO:TX:b:i:t=cresc.	!	!LO:TX:b:i:t=cresc.	!	!
(8F#L]	.	2B	.	(4f#]	.	16ccXLL	.	viio(+4)
.	.	.	.	.	.	16dd	.	.
8D	.	.	.	.	.	16cc	.	V7(+6)
.	.	.	.	.	.	16bJJ	.	.
8BB)	.	.	.	[4g	.	16aLL	.	I6
.	.	.	.	.	.	16b	.	.
[8GJ	.	.	.	.	.	16a	.	I
.	.	.	.	.	.	16gJJ)	.	.
8GL]	.	(8e	.	4g]	.	(16gLL	.	vi6
.	.	.	.	.	.	16a	.	.
(8C	.	4A	.	.	.	16g	.	ii65
.	.	.	.	.	.	16f#JJ)	.	.
8C#	.	.	.	4a)	.	(16f#LL	.	V6/V
.	.	.	.	.	.	16e	.	.
8DJ)	.	8f#)	.	.	.	16d	.	V
.	.	.	.	.	.	16cJJ)	.	.
=194	=194	=194	=194	=194	=194	=194	=194	=194
!	!	!	!	!	!LO:DY:a	!	!	!
4GG'	p	4g	p	16b	p p	4B'	.	I\\
!	!	!	!	!LO:TX:b:i:t=non ligato	!	!	!	!
.	.	.	.	16eLL	.	.	.	.
.	.	.	.	16d	.	.	.	.
.	.	.	.	16cJJ	.	.	.	.
4GG'	.	4r	.	16BLL	.	4b'	.	I
.	.	.	.	16c	.	.	.	.
.	.	.	.	16d	.	.	.	.
.	.	.	.	16eJJ	.	.	.	.
!	!	!LO:TX:b:i:t=non ligato	!	!	!	!	!	!
4FF#'	.	16r	.	8A	.	4dd'	.	V6
.	.	16DLL	.	.	.	.	.	.
.	.	16C#	.	8r	.	.	.	.
.	.	16BBJJ	.	.	.	.	.	.
4FF#'	.	16AALL	.	4r	.	4dd'	.	.
.	.	16BB	.	.	.	.	.	.
.	.	16C#	.	.	.	.	.	.
.	.	16DJJ	.	.	.	.	.	.
=195	=195	=195	=195	=195	=195	=195	=195	=195
!LO:TX:b:i:t=cresc.	!	!LO:TX:b:i:t=cresc.	!	!LO:TX:b:i:t=cresc.	!	!LO:TX:b:i:t=cresc.	!	!
(4EE	.	(4C#	.	16r	.	(4ee	.	V43/V
.	.	.	.	(16BLL	.	.	.	.
.	.	.	.	16A	.	.	.	.
.	.	.	.	16GJJ)	.	.	.	.
4DD	.	4BB	.	(16GLL	.	4ff#	.	iii6
.	.	.	.	16A	.	.	.	.
.	.	.	.	16G	.	.	.	.
.	.	.	.	16F#JJ)	.	.	.	.
4CC#	.	4AA	.	(16F#LL	.	4gg	.	V65/V
.	.	.	.	16G	.	.	.	.
.	.	.	.	16F#	.	.	.	.
.	.	.	.	16EJJ)	.	.	.	.
4CCX)	.	4A)	.	(16eLL	.	4aa)	.	ii6
.	.	.	.	16f#	.	.	.	.
.	.	.	.	16e	.	.	.	.
.	.	.	.	16dJJ)	.	.	.	.
=196	=196	=196	=196	=196	=196	=196	=196	=196
4BBB'	p	16r	p	4d	p	4gg'	p	I6
.	.	(16BLL	.	.	.	.	.	.
.	.	16A	.	.	.	.	.	.
.	.	16GJJ)	.	.	.	.	.	.
4CC'	.	(16F#LL	.	4r	.	4aa'	.	ii6
.	.	16G	.	.	.	.	.	.
.	.	16F#	.	.	.	.	.	.
.	.	16E'JJ)	.	.	.	.	.	.
4DD'	.	(16ELL	.	16r	.	4dd'	.	V(64)
.	.	16D	.	(16BLL	.	.	.	.
.	.	16CX	.	16A	.	.	.	.
.	.	16BBJJ	.	16GJJ	.	.	.	.
4DD'	.	16AALL	.	16F#LL	.	4ff#'	.	V7
.	.	16F#	.	16A	.	.	.	.
.	.	16G	.	16B	.	.	.	.
.	.	16AJJ)	.	16cJJ)	.	.	.	.
=197	=197	=197	=197	=197	=197	=197	=197	=197
1r	.	4G'	.	4B'	.	2r	.	I\\
.	.	4A'	.	4a'	.	.	.	.
.	.	4D'	.	4d'	.	4ccc'	.	V7
.	.	4F#'	.	4f#'	.	4ddd'	.	V6
=198	=198	=198	=198	=198	=198	=198	=198	=198
4BBB'	.	(16GLL	.	(16gLL	.	4gg'	.	I6
.	.	16B	.	16b	.	.	.	.
.	.	16A	.	16a	.	.	.	.
.	.	16GJJ	.	16gJJ	.	.	.	.
4BBB'	.	16DLL	.	16dLL	.	4aa'	.	I6(9)
.	.	16B	.	16b	.	.	.	.
.	.	16A	.	16a	.	.	.	.
.	.	16GJJ)	.	16gJJ)	.	.	.	.
4DD'	.	(16GLL	.	(16gLL	.	4dd'	.	V(64)
.	.	16A	.	16a	.	.	.	.
.	.	16G	.	16g	.	.	.	.
.	.	16F#JJ	.	16f#JJ	.	.	.	.
4DD'	.	16F#LL	.	16f#LL	.	4ff#'	.	V7
.	.	16E	.	16e	.	.	.	.
.	.	16D	.	16d	.	.	.	.
.	.	16CJJ)	.	16cJJ)	.	.	.	.
=199	=199	=199	=199	=199	=199	=199	=199	=199
!LO:TX:b:i:t=cresc.	!	!LO:TX:b:i:t=cresc.	!	!LO:TX:b:i:t=cresc.	!	!LO:TX:b:i:t=cresc.	!	!
(4EE	.	(16BBLL	.	4B'	.	(4gg	.	vi
.	.	16C	.	.	.	.	.	.
.	.	16BB	.	.	.	.	.	.
.	.	16AAJJ	.	.	.	.	.	.
4FF#	.	16BBLL	.	4B'	.	8aaL	.	V6(+6)
.	.	16A	.	.	.	.	.	.
.	.	16G	.	.	.	8ddJ)	.	.
.	.	16F#JJ)	.	.	.	.	.	.
4GG	.	(16F#LL	.	4d'	.	(4bb	.	I
.	.	16G	.	.	.	.	.	.
.	.	16F#	.	.	.	.	.	.
.	.	16EJJ	.	.	.	.	.	.
4AA)	.	16ELL	.	4d'	.	4ccc)	.	V43
.	.	16F#	.	.	.	.	.	.
.	.	16E	.	.	.	.	.	.
.	.	16DJJ)	.	.	.	.	.	.
=200	=200	=200	=200	=200	=200	=200	=200	=200
4GG'	p	4E'	p	(16dLL	p	4bb'	p	V.ii65
.	.	.	.	16b	.	.	.	.
.	.	.	.	16a	.	.	.	.
.	.	.	.	16gJJ)	.	.	.	.
4AA'	.	4E'	.	(16gLL	.	4ccc#'	.	V7
.	.	.	.	16a	.	.	.	.
.	.	.	.	16g	.	.	.	.
.	.	.	.	16f#JJ	.	.	.	.
4DD'	.	4A'	.	16eLL	.	[2ddd	.	I.V6
.	.	.	.	16f#	.	.	.	.
.	.	.	.	16e	.	.	.	.
.	.	.	.	16dJJ)	.	.	.	.
(16F#LL	.	4A'	.	4a'	.	.	.	.
16G	.	.	.	.	.	.	.	.
16F#	.	.	.	.	.	.	.	.
16EJJ)	.	.	.	.	.	.	.	.
=201	=201	=201	=201	=201	=201	=201	=201	=201
(16ELL	.	(4B	.	4g'	.	1ddd_	.	I6
16F#	.	.	.	.	.	.	.	.
16E	.	.	.	.	.	.	.	.
16DJJ)	.	.	.	.	.	.	.	.
(16DLL	.	4cX	.	4a'	.	.	.	.
16E	.	.	.	.	.	.	.	.
16D	.	.	.	.	.	.	.	.
16CJJ)	.	.	.	.	.	.	.	.
(16CLL	.	4d)	.	4d'	.	.	.	.
16BB	.	.	.	.	.	.	.	.
16AA	.	.	.	.	.	.	.	.
16GGJJ)	.	.	.	.	.	.	.	.
4BBB'	.	4B'	.	(16ggLL	.	.	.	.
.	.	.	.	16aa	.	.	.	.
.	.	.	.	16gg	.	.	.	.
.	.	.	.	16ff#JJ)	.	.	.	.
=202	=202	=202	=202	=202	=202	=202	=202	=202
4CC'	.	4A'	.	(16ff#LL	.	2.ddd]	.	vi
.	.	.	.	16gg	.	.	.	.
.	.	.	.	16ff#	.	.	.	.
.	.	.	.	16eeJJ)	.	.	.	.
4DD'	.	4B'	.	(16eeLL	.	.	.	.
.	.	.	.	16ff#	.	.	.	.
.	.	.	.	16ee	.	.	.	.
.	.	.	.	16ddJJ	.	.	.	.
(16EELL	.	4D'	.	16ccLL	.	.	.	.
16GG	.	.	.	16b	.	.	.	.
16FF#	.	.	.	16a	.	.	.	.
16EEJJ)	.	.	.	16gJJ)	.	.	.	.
!LO:TX:b:i:t=cresc.	!	!	!	!LO:TX:b:i:t=cresc.	!	!LO:TX:b:i:t=cresc.	!	!
(16AALL	.	4r	.	[4cc	.	(16cccLL	.	ii
16BB	.	.	.	.	.	16ddd	.	.
16AA	.	.	.	.	.	16ccc	.	.
16GGJJ)	.	.	.	.	.	16bbJJ)	.	.
=203	=203	=203	=203	=203	=203	=203	=203	=203
!	!	!LO:TX:b:i:t=cresc.	!	!	!	!	!	!
(16FF#LL	.	(16ALL	.	(16ccLL]	.	4aa'	.	viio7-iio/vi
16GG	.	16B	.	16b	.	.	.	.
16FF#	.	16A	.	16a	.	.	.	.
16EEJJ)	.	16GJJ)	.	16ccJJ)	.	.	.	.
4DD#X'	.	8f#'L	.	8f#'L	.	(16bbLL	.	V6/vi
.	.	.	.	.	.	16ccc	.	.
.	.	8F#'J	.	[8bJ	.	16bb	.	.
.	.	.	.	.	.	16aaJJ)	.	.
(16EELL	.	(16GLL	.	(16bLL]	.	4gg'	.	vi
16FF#	.	16A	.	16a	.	.	.	.
16EE	.	16G	.	16g	.	.	.	.
16DDJJ)	.	16F#JJ)	.	16bJJ)	.	.	.	.
4CC#'	.	8E'L	.	(16aLL	.	(16aaLL	.	V6/V
.	.	.	.	16b	.	16gg	.	.
.	.	8AA'J	.	16a	.	16ff#	.	.
.	.	.	.	16gJJ)	.	16eeJJ)	.	.
=204	=204	=204	=204	=204	=204	=204	=204	=204
4DD'	.	8A'L	.	(16f#LL	.	(16ddLL	.	V7
.	.	.	.	16g	.	16ee	.	.
.	.	8B'J	.	16f#	.	16dd	.	V(6)
.	.	.	.	16eJJ)	.	16ccJJ)	.	.
4GG'	.	(16gLL	.	4d'	.	8b'L	.	I
.	.	16a	.	.	.	.	.	.
.	.	16g	.	.	.	8gg'J	.	.
.	.	16f#JJ)	.	.	.	.	.	.
8EE'L	.	4g'	.	(16eLL	.	(16ccLL	.	IV6
.	.	.	.	16f#	.	16dd	.	.
8E'J	.	.	.	16e	.	16cc	.	.
.	.	.	.	16dJJ)	.	16bJJ)	.	.
(16F#LL	.	8f#'L	.	8c'L	.	8a'L	.	viio-iio/vi
16G	.	.	.	.	.	.	.	.
16F#	.	8c#'J	.	8a'J	.	8ff#'J	.	.
16EJJ)	.	.	.	.	.	.	.	.
=205	=205	=205	=205	=205	=205	=205	=205	=205
8D#X'L	.	4f#'	.	(16bLL	.	8b'L	.	V6/vi
.	.	.	.	16cc	.	.	.	.
8d#X'J	.	.	.	16b	.	8ff#'J	.	.
.	.	.	.	16aJJ)	.	.	.	.
8e'L	.	4e'	.	(16gLL	.	(4gg	.	vi2
.	.	.	.	16a	.	.	.	.
8d'J	.	.	.	16g	.	.	.	.
.	.	.	.	16f#JJ)	.	.	.	.
8c'L	.	8r	.	(16eLL	.	8ggL)	.	IV
.	.	.	.	16f#	.	.	.	.
8B'	.	8e'L	.	16e	.	8gg'	.	vi64
.	.	.	.	16dJJ)	.	.	.	.
8A'	.	8f#'	.	(16cLL	.	8aa'	.	viio6
.	.	.	.	16d	.	.	.	.
8G'J	.	8g'J	.	16c	.	8bb'J	.	I
.	.	.	.	16BJJ)	.	.	.	.
=206	=206	=206	=206	=206	=206	=206	=206	=206
8F#L	.	(16aLL	.	8A'L	.	8ccc'L	.	viio
.	.	16b	.	.	.	.	.	.
8E	.	16a	.	8e'	.	8ccc#'J	.	V43/V
.	.	16gJJ)	.	.	.	.	.	.
8D	fz	(16f#LL	sf	8f#'	sf	(4ddd	sf	#viio(+2)/V
.	.	16g	.	.	.	.	.	.
8C#J	.	16f#	.	8g'J	.	.	.	.
.	.	16eJJ)	.	.	.	.	.	.
8CXL	.	(16dLL	.	8f#'L	.	8dddL)	.	V2
.	.	16e	.	.	.	.	.	.
8BB	.	16d	.	8g'	.	8eee'J	.	I6
.	.	16c#JJ)	.	.	.	.	.	.
!	!LO:DY:a	!	!	!	!	!	!	!
8AA	sf sf	(16cXLL	.	8a'	sf	(4fff#	sf	I
.	.	16d	.	.	.	.	.	.
8GGJ	.	16c	.	8b'J	.	.	.	.
.	.	16BJJ)	.	.	.	.	.	.
=207	=207	=207	=207	=207	=207	=207	=207	=207
8FF#L	.	(16ALL	.	8a'L	.	8fff#L)	.	V6
.	.	16B	.	.	.	.	.	.
8EE	.	16A	.	8b'	.	8ggg'J	.	vi
.	.	16GJJ)	.	.	.	.	.	.
8DD	sf	(16F#LL	sf	8cc'	sf	4.aaa	sf	V2
.	.	16G	.	.	.	.	.	.
8CC#J	.	16F#	.	8cc#'J	.	.	.	.
.	.	16EJJ)	.	.	.	.	.	.
8CCXL	.	(16DLL	.	8ddL	.	.	.	.
.	.	16E	.	.	.	.	.	.
8AA	.	16D	.	8d	.	8ff#'	.	V64
.	.	16CJJ)	.	.	.	.	.	.
!	!LO:DY:a	!	!	!	!	!	!	!
8GG	sf sf	(16BBLL	.	8dd	.	8gg'L	.	I
.	.	16C	.	.	.	.	.	.
8FF#J	.	16BB	.	8ddJ	.	8aa'J	.	V6
.	.	16AAJJ)	.	.	.	.	.	.
=208	=208	=208	=208	=208	=208	=208	=208	=208
!	!LO:DY:a	!	!	!	!	!	!	!
2GG	ff ff	2D	.	(16ddLL	ff	2bb	ff	I
.	.	.	.	16ee	.	.	.	.
.	.	.	.	16dd	.	.	.	.
.	.	.	.	16ccXJJ	.	.	.	.
.	.	.	.	16bLL	.	.	.	.
.	.	.	.	16cc	.	.	.	.
.	.	.	.	16b	.	.	.	.
.	.	.	.	16aJJ)	.	.	.	.
!	!	!	!LO:DY:a	!	!	!	!	!
2CC	sf	2G	sf sf	(16aLL	.	2eee	sf	IV
.	.	.	.	16g	.	.	.	.
.	.	.	.	16f#	.	.	.	.
.	.	.	.	16gJJ	.	.	.	.
.	.	.	.	16aLL	.	.	.	.
.	.	.	.	16g	.	.	.	.
.	.	.	.	16f#	.	.	.	.
.	.	.	.	16eJJ)	.	.	.	.
=209	=209	=209	=209	=209	=209	=209	=209	=209
!	!	!	!LO:DY:a	!	!	!	!	!
2BBB	sf	(16dLL	sf sf	(4.g	.	2ddd	sf	I6
.	.	16e	.	.	.	.	.	.
.	.	16d	.	.	.	.	.	.
.	.	16cJJ	.	.	.	.	.	.
.	.	16BLL	.	.	.	.	.	.
.	.	16c	.	.	.	.	.	.
.	.	16B	.	16aLL	.	.	.	.
.	.	16AJJ)	.	16bJJ)	.	.	.	.
(4AAA	sf	(16ALL	sf	(8bL	sf	2fff#	sf	V43
.	.	16G	.	.	.	.	.	.
.	.	16F#	.	8cc)	.	.	.	.
.	.	16EJJ)	.	.	.	.	.	.
4AA)	.	(16ELL	.	8cc'	.	.	.	.
.	.	16D	.	.	.	.	.	.
.	.	16C#	.	8cc'J	.	.	.	.
.	.	16DJJ)	.	.	.	.	.	.
=210	=210	=210	=210	=210	=210	=210	=210	=210
2GG	sf	(16ELL	sf	(8ccL	sf	2ggg	sf	I
.	.	16D	.	.	.	.	.	.
.	.	16C#	.	8b)	.	.	.	.
.	.	16DJJ	.	.	.	.	.	.
.	.	16ELL	.	8b'	.	.	.	.
.	.	16D	.	.	.	.	.	.
.	.	16C#	.	8gg'J	.	.	.	.
.	.	16DJJ)	.	.	.	.	.	.
2DD	sf > ]]	(16ELL	sf >	(8ggL	sf >	2aaa	sf > ]]	V
.	.	16D	.	.	.	.	.	.
.	.	16C#	.	8ff#)	.	.	.	.
.	.	16DJJ)	.	.	.	.	.	.
.	.	(16DLL	.	8ff#'	.	.	.	.
.	.	16CX	.	.	.	.	.	.
.	.	16BB	.	8ff#'J	]]	.	.	.
.	.	16CJJ)	]]	.	.	.	.	.
=211	=211	=211	=211	=211	=211	=211	=211	=211
!	!LO:DY:a	!	!	!	!	!	!	!
8GGL	p p	8BB'L	.	8gg'L	p	8ggg'L	p	I\\
8GG'	.	8G'	.	8g'	.	8g'	.	I
(8GG	.	(8G	.	(8g	.	(8g	.	.
8FFXJ)	.	8FXJ)	.	8fXJ)	.	8fXJ)	.	V2/IV
(8FFL	.	(8FL	.	(8fL	.	(8fL	.	.
8EE	.	8E	.	8e	.	8e	.	IV6
8GGJ)	.	8GJ)	.	8gJ)	.	8gJ)	.	.
8EE'	.	8E'	.	8e'	.	8e'	.	.
=212	=212	=212	=212	=212	=212	=212	=212	=212
(8EEL	.	(8EL	.	(8eL	.	(8eL	.	.
8DD	.	8D	.	8d	.	8d	.	V43/IV
8GGJ)	.	8GJ)	.	8gJ)	.	8gJ)	.	.
8FFX'	.	8FX'	.	8fX'	.	8fX'	.	.
(8FFL	.	(8FL	.	(8fL	.	(8fL	.	.
8EE	.	8E	.	8e	.	8e	.	IV6
8GGJ)	.	8GJ)	.	8gJ)	.	8gJ)	.	.
8EE'	.	8E'	.	8e'	.	8e	.	.
=213	=213	=213	=213	=213	=213	=213	=213	=213
(8EEL	.	(8EL	.	(8eL	.	(8eL	.	.
8DD	.	8D	.	8d	.	8d	.	.
8GGJ)	.	8GJ)	.	8gJ)	.	8gJ)	.	.
8CC'	.	8C'	.	8c'	.	8c'	.	IV
!LO:TX:b:i:t=dim.	!	!LO:TX:b:i:t=dim.	!	!LO:TX:b:i:t=dim.	!	!LO:TX:b:i:t=dim.	!	!
(8CCL	.	(8CL	.	(8cL	.	(8cL	.	.
8BBB	.	8BB	.	8B	.	8B	.	I6
8GGJ)	.	8GJ)	.	8gJ)	.	8gJ)	.	.
8BBB'	.	8BB'	.	8B'	.	8B'	.	.
=214	=214	=214	=214	=214	=214	=214	=214	=214
(4BBB	.	(4BB	.	(4B	.	(4B	.	.
[4AAA	.	[4AA	.	[4A	.	[4A	.	@none
4.AAA])	.	4.AA])	.	4.A]	.	4.A]	.	.
8GG	.	8G	.	8G)	.	8G)	.	.
=215	=215	=215	=215	=215	=215	=215	=215	=215
(4GG	.	(4G	.	(4G	.	(4G	.	.
[4FF#	.	[4F#	.	[4F#	.	[4F#	.	.
4FF#]	.	4F#])	.	4F#])	.	4F#])	.	.
4EE)	.	(4G	.	(4c#	.	(4g	.	#viio6/V
=216	=216	=216	=216	=216	=216	=216	=216	=216
*M3/4	*	*M3/4	*	*M3/4	*	*M3/4	*	*
!	!	!	!	!	!	!LO:TX:a:B:t=Adagio ma non troppo.	!	!
4DD	<	4.A	<	4.d)	<	4.f#	<	V
(8DL	.	.	.	.	.	.	.	.
8BB	.	8G#L	.	(8dL	.	8fXL	.	#viio65/ii
8C	.	8A	.	8cX	.	8e	.	ii6
8AAJ)	[[	8eJ)	[[	8aJ)	[[	8ccJ)	[[	ii
=217	=217	=217	=217	=217	=217	=217	=217	=217
(8BBL	p	(8dL	p	(8gL	p	(4b	p	I6
8C	.	8gX	.	8d	.	.	.	.
8DJ)	.	8f#J)	.	8dJ)	.	8a)	.	V
8r	.	8r	.	8r	.	8r	.	.
*clefC4	*	*	*	*	*	*	*	*
(8dL	.	(8BL	.	(8dL	.	(4gg	.	I
8GJ)	.	8gJ)	.	8bJ)	.	.	.	.
=218	=218	=218	=218	=218	=218	=218	=218	=218
!LO:TX:b:i:t=cresc.	!	!LO:TX:b:i:t=cresc.	!	!LO:TX:b:i:t=cresc.	!	!LO:TX:b:i:t=cresc.	!	!
(4.A	.	4.d	.	(4.cc	.	4.ff#	.	V43
8BL	.	(8dL	.	8g#L	.	8ffXL	.	#viio65/ii
8c	.	8e	.	8a	.	8ee	.	ii6
8dJ)	.	8aJ)	.	8ccJ)	.	8ff#J)	.	V7
=219	=219	=219	=219	=219	=219	=219	=219	=219
(4d#X	p	(4a	p	(4cc	p	(4ff#	p	#viio7/vi
8e)	.	8g)	.	8b)	.	8gg)	.	vi
8r	.	8r	.	8r	.	8r	.	.
*clefF4	*	*	*	*	*	*	*	*
!	!	!	!LO:DY:a	!	!	!	!	!
(4DD#X	pp	(4C	pp pp	(4F#	.	4r	.	#viio7/vi
=220	=220	=220	=220	=220	=220	=220	=220	=220
*M4/4	*	*M4/4	*	*M4/4	*	*M4/4	*	*
*met(c)	*	*met(c)	*	*met(c)	*	*met(c)	*	*
!	!LO:DY:a	!	!LO:DY:a	!	!	!LO:TX:a:B:t=Allegro.	!	!
4EE)	f f	4BB)	f	4G)	.	16ggLL	f	vi
!	!	!	!	!	!	!LO:TX:b:i:t=non ligato	!	!
.	.	.	.	.	.	16aa	.	.
.	.	.	.	.	.	16gg	.	.
.	.	.	.	.	.	16ff#JJ	.	.
4r	.	8eL	.	8gL	.	16eeLL	.	.
.	.	.	.	.	.	16ff#	.	.
.	.	8eJ	.	8gJ	.	16ee	.	.
.	.	.	.	.	.	16ddJJ	.	.
2r	.	4r	.	4r	.	16ccLL	.	.
.	.	.	.	.	.	16dd	.	.
.	.	.	.	.	.	16cc	.	.
.	.	.	.	.	.	16bJJ	.	.
.	.	8eL	.	8ccL	.	16aLL	.	IV6
.	.	.	.	.	.	16gJ	.	.
.	.	8eJ	.	8ccJ	.	8ggJ	.	.
=221	=221	=221	=221	=221	=221	=221	=221	=221
*M3/4	*	*M3/4	*	*M3/4	*	*M3/4	*	*
!	!	!	!	!	!	!LO:TX:a:B:t=Adagio ma non troppo.	!	!
4r	.	(4e	p	(4cc	p	(4gg#	p	IV+6
4r	.	8f#)	.	8a)	.	8aa)	.	viio
.	.	8r	.	8r	.	8r	.	.
!	!	!	!LO:DY:a	!	!	!	!	!
(4EE	pp	(4C	pp pp	(4G#	.	4r	.	IV+6
=222	=222	=222	=222	=222	=222	=222	=222	=222
*M4/4	*	*M4/4	*	*M4/4	*	*M4/4	*	*
*met(c)	*	*met(c)	*	*met(c)	*	*met(c)	*	*
!	!	!	!	!	!	!LO:TX:a:B:t=Adagio ma non troppo.	!	!
!	!LO:DY:a	!	!LO:DY:a	!	!	!LO:TX:a:B:t=Allegro.	!	!
4FF#)	f f	4AA)	f	4A)	.	16aaLL	f	V6
.	.	.	.	.	.	16bb	.	.
.	.	.	.	.	.	16aa	.	.
.	.	.	.	.	.	16ggXJJ	.	.
4r	.	8dL	.	8f#L	.	16ff#LL	.	V
.	.	.	.	.	.	16gg	.	.
.	.	8dJ	.	8f#J	.	16ff#	.	.
.	.	.	.	.	.	16eeJJ	.	.
2r	.	4r	.	4r	.	16ddLL	.	.
.	.	.	.	.	.	16ee	.	.
.	.	.	.	.	.	16dd	.	.
.	.	.	.	.	.	16ccJJ	.	.
.	.	8dL	.	8f#L	.	16bLL	.	.
.	.	.	.	.	.	16aJ	.	.
.	.	8dJ	.	8f#J	.	8aaJ	.	.
=223	=223	=223	=223	=223	=223	=223	=223	=223
*M3/4	*	*M3/4	*	*M3/4	*	*M3/4	*	*
4r	.	(4d	p	(4f#	p	(4aa#X	p	V+
4r	.	8G)	.	8g)	.	8bb)	.	I
.	.	8r	.	8r	.	8r	.	.
!	!	!	!LO:DY:a	!	!	!	!	!
4D	pp	(4F#	pp pp	(4A#X	.	4r	.	V+
=224	=224	=224	=224	=224	=224	=224	=224	=224
*M4/4	*	*M4/4	*	*M4/4	*	*M4/4	*	*
*met(c)	*	*met(c)	*	*met(c)	*	*met(c)	*	*
!	!	!	!LO:DY:a	!	!	!LO:TX:a:B:t=Allegro.	!	!
4D	f	4G)	f f	4B)	.	16bbLL	f	V(64)
.	.	.	.	.	.	16ccc	.	.
.	.	.	.	.	.	16bb	.	.
.	.	.	.	.	.	16aaJJ	.	.
8DL	.	8GL	.	8BL	.	16ggLL	.	.
.	.	.	.	.	.	16aa	.	.
8DJ	.	8GJ	.	8BJ	.	16gg	.	.
.	.	.	.	.	.	16ff#JJ	.	.
4r	.	4r	.	4r	.	16eeLL	>	.
.	.	.	.	.	.	16ff#	.	.
.	.	.	.	.	.	16ee	.	.
.	.	.	.	.	.	16ddJJ	.	.
*clefC4	*	*	*	*	*	*	*	*
8dL	>	8gL	>	8bL	>	16ccLL	.	.
.	.	.	.	.	.	16dd	.	.
8dJ	]]	8gJ	]]	8bJ	]]	16cc	.	.
.	.	.	.	.	.	16bJJ	]]	.
=225	=225	=225	=225	=225	=225	=225	=225	=225
[4d	p	[4g	p	(4b	p	(4bb	p	V[I
8dL]	.	8gL]	.	8b-XL)	.	8cccL)	.	i
!LO:TX:b:i:t=cresc.	!	!LO:TX:b:i:t=cresc.	!	!LO:TX:b:i:t=cresc.	!	!LO:TX:b:i:t=cresc.	!	!
8dJ	.	8gJ	.	8b-J	.	8ccc#J	.	#viio43/V
[2d	.	(4g	.	(4b-	.	(4ccc#	.	.
.	.	8f#L)	.	8aL)	.	8dddL)	.	V6
.	.	8f#J	.	8aJ	.	8ddd#XJ	.	#viio6/vi
=226	=226	=226	=226	=226	=226	=226	=226	=226
2d_	.	(4f#	.	(4a	.	(4ddd#X	.	.
.	.	8g#L)	.	8bL)	.	8eeeL)	.	V7/ii
.	.	8g#J	.	8bJ	.	8dddJ	.	.
4d]	.	(4g#	.	(4b	.	(4ddd	.	.
8dL	.	8aL)	.	8ccL)	.	8cccL)	.	ii
[8dJ	.	8gXJ	.	8b-XJ	.	8ccc#J	.	#viio43/V
=227	=227	=227	=227	=227	=227	=227	=227	=227
4d]	.	(4g	.	(4b-X	.	(4ccc#	.	.
8dL	.	8f#L)	.	8aL)	.	8dddL)	.	viio(6)
[8dJ	.	8f#J	.	8aJ	.	8cccXJ	.	viio
4d]	.	(4f#	.	(4a	.	(4ccc	.	.
8dL	.	8fXL)	.	8gL)	.	8bbL)	.	V2/IV
[8dJ	.	8fJ	.	8gJ	.	8bbJ	.	.
=228	=228	=228	=228	=228	=228	=228	=228	=228
4d]	.	(4fX	.	[4g	.	(4bb	.	V2/IV]
8cL	.	8eL)	.	8gL]	.	8cccL)	.	IV
8cJ	.	8eJ	.	8gJ	.	8eeJ	.	.
[4c	.	(4e	.	[4g	.	(4ee	.	.
8cL]	.	8e-XL)	.	8gL]	.	8ggL)	.	iv
(8cJ	.	(8e-J	.	8gJ	.	8ggJ	.	.
=229	=229	=229	=229	=229	=229	=229	=229	=229
4B	p <	4d	p <	(4g	p <	(8ggL	p <	I6
.	.	.	.	.	.	8bb	.	.
4A	.	4c	.	4a	.	8aa	.	V43
.	.	.	.	.	.	8ff#J	.	.
4G	.	4B	.	4b	.	8bbL	.	I
.	.	.	.	.	.	8ddd	.	.
4C	[[	[4E	[[	4a	[[	8ccc	.	ii6
.	.	.	.	.	.	8aaJ	[[	.
=230	=230	=230	=230	=230	=230	=230	=230	=230
4C#	>	4E]	>	4g	>	8ggL	>	#viio/V
.	.	.	.	.	.	8bb	.	.
2.D)	]]	4A	.	4f#	.	8aa	.	V
.	.	.	.	.	.	8ff#J	.	.
.	.	4c	.	4a	.	8eeL	.	V7
.	.	.	.	.	.	8dd	.	.
.	.	4A)	]]	4c)	]]	8ee	.	.
.	.	.	.	.	.	8ff#J)	]]	.
=231	=231	=231	=231	=231	=231	=231	=231	=231
1GG	pp	(16GLL	pp	4B	pp	4r	pp	I\\
.	.	16c	.	.	.	.	.	.
.	.	16B	.	.	.	.	.	.
.	.	16AJJ	.	.	.	.	.	.
.	.	16GLL	.	4r	.	4gg	.	I
.	.	16A	.	.	.	.	.	.
.	.	16G	.	.	.	.	.	.
.	.	16F#JJ	.	.	.	.	.	.
.	.	16ELL	.	2r	.	4gg	.	.
.	.	16F#	.	.	.	.	.	.
.	.	16E	.	.	.	.	.	.
.	.	16DJJ	.	.	.	.	.	.
.	.	16CLL	.	.	.	8ggL	.	.
.	.	16D	.	.	.	.	.	.
.	.	16C	.	.	.	8ggJ	.	.
.	.	16BBJJ)	.	.	.	.	.	.
=232	=232	=232	=232	=232	=232	=232	=232	=232
4r	.	1AA	.	(16F#LL	.	1ccc	.	V7
.	.	.	.	16E	.	.	.	.
.	.	.	.	16F#	.	.	.	.
.	.	.	.	16GJJ	.	.	.	.
4DD	.	.	.	16ALL	.	.	.	.
.	.	.	.	16G	.	.	.	.
.	.	.	.	16A	.	.	.	.
.	.	.	.	16BJJ	.	.	.	.
4DD	.	.	.	16cLL	.	.	.	.
.	.	.	.	16B	.	.	.	.
.	.	.	.	16c	.	.	.	.
.	.	.	.	16dJJ	.	.	.	.
8DDL	.	.	.	16eLL	.	.	.	.
.	.	.	.	16d	.	.	.	.
8DDJ	.	.	.	16e	.	.	.	.
.	.	.	.	16f#JJ)	.	.	.	.
=233	=233	=233	=233	=233	=233	=233	=233	=233
!LO:TX:b:i:t=sempre	!	!LO:TX:b:i:t=sempre	!	!LO:TX:b:i:t=sempre	!	!	!	!
1GG	pp	(16BLL	pp	1g	pp	4r	pp	I
.	.	16c	.	.	.	.	.	.
.	.	16B	.	.	.	.	.	.
.	.	16AJJ	.	.	.	.	.	.
!	!	!	!	!	!	!LO:TX:b:i:t=sempre	!	!
.	.	16GLL	.	.	.	4gg	.	.
.	.	16A	.	.	.	.	.	.
.	.	16G	.	.	.	.	.	.
.	.	16F#JJ	.	.	.	.	.	.
.	.	16ELL	.	.	.	4gg	.	.
.	.	16F#	.	.	.	.	.	.
.	.	16E	.	.	.	.	.	.
.	.	16DJJ	.	.	.	.	.	.
.	.	16CLL	.	.	.	8ggL	.	.
.	.	16D	.	.	.	.	.	.
.	.	16C	.	.	.	8ggJ	.	.
.	.	16BBJJ)	.	.	.	.	.	.
=234	=234	=234	=234	=234	=234	=234	=234	=234
4r	.	1AA	.	(16F#LL	.	2.ccc	.	V7
.	.	.	.	16E	.	.	.	.
.	.	.	.	16F#	.	.	.	.
.	.	.	.	16GJJ	.	.	.	.
4DD	.	.	.	16ALL	.	.	.	.
.	.	.	.	16G	.	.	.	.
.	.	.	.	16A	.	.	.	.
.	.	.	.	16BJJ	.	.	.	.
4DD	.	.	.	16cLL	.	.	.	.
.	.	.	.	16B	.	.	.	.
.	.	.	.	16c	.	.	.	.
.	.	.	.	16dJJ	.	.	.	.
8DDL	.	.	.	16eLL	.	8ff#L	.	.
.	.	.	.	16d	.	.	.	.
8DDJ	.	.	.	16e	.	8ff#J	.	.
.	.	.	.	16f#JJ)	.	.	.	.
=235	=235	=235	=235	=235	=235	=235	=235	=235
!	!LO:DY:a	!	!	!	!	!	!	!
4GG'	f f	4BB'	.	4d'	f	4gg'	f	I
8DDL	.	8F#L	.	8cL	.	8aaL	.	V7
8DDJ	.	8F#J	.	8cJ	.	8aaJ	.	.
4GG'	.	4G'	.	4B'	.	4gg'	.	I
8DDL	.	8dL	.	8dL 8a	.	8aL 8ff#	.	V7
8DDJ	.	8dJ	.	8dJ 8a	.	8aJ 8ff#	.	.
=236	=236	=236	=236	=236	=236	=236	=236	=236
4GG	.	4BB 4G	.	4G 4d 4b	.	4d 4b 4gg	.	I\\
4r	.	4r	.	4r	.	4r	.	.
2r	.	2r	.	2r	.	2r	.	.
==	==	==	==	==	==	==	==	==
*-	*-	*-	*-	*-	*-	*-	*-	*-
!!!system-decoration: [(s1,s2,s3,s4)]
!!!YEM: <font size="10"/>Copyright 2002 Robert L. Jenks Edition may be freely distributed, copied, or performed
